jaimishdhanani6334/ros2-imitation-learning-prototype/my_robot_bringup/dataset/demo.csv
time,base_to_forearm_joint,forearm_to_hand_joint,left_finger_joint,right_finger_joint
0.1195368766784668,0.0013522400068199452,0.0011643311003140613,-1.799461456628876e-16,-1.7990397845694998e-16
0.11986947059631348,0.0013522400068221745,0.0011643311003289851,-1.798938871181738e-16,-1.799239277769237e-16
0.12008094787597656,0.0013522400068244039,0.001164331100343909,-1.7997845488762768e-16,-1.7992848142604814e-16
0.12028360366821289,0.001352240006826633,0.0011643311003588328,-1.7993465311985926e-16,-1.799080984252054e-16
0.12234640121459961,0.0013522400068288621,0.0011643311003737566,-1.7993356891768678e-16,-1.799310835112621e-16
0.12275409698486328,0.0013522400068310912,0.0011643311003886804,-1.7994072465202519e-16,-1.7995558648036028e-16
0.12297630310058594,0.0013522400068333204,0.0011643311004036043,-1.7989085135209085e-16,-1.7994951494819435e-16
0.12319183349609375,0.0013522400068355495,0.0011643311004185279,-1.8000274101629134e-16,-1.7991720572345429e-16
0.1234903335571289,0.0013522400068377786,0.0011643311004334515,-1.7998669482413857e-16,-1.7991026682955037e-16
0.12370800971984863,0.0013522400068400077,0.001164331100448375,-1.7994831406723258e-16,-1.79938022405166e-16
0.14293622970581055,0.0013522400068422368,0.0011643311004632987,-1.79954168758964e-16,-1.7992674670257215e-16
0.14322161674499512,0.001352240006844466,0.0011643311004782223,-1.799242447790034e-16,-1.7994517813950442e-16
0.14345836639404297,0.001352240006846695,0.0011643311004931457,-1.7995134983331554e-16,-1.799685969064301e-16
0.14367127418518066,0.0013522400068489242,0.001164331100508069,-1.7996457709981987e-16,-1.7992522881953066e-16
0.1439061164855957,0.0013522400068511533,0.0011643311005229925,-1.7993031631116932e-16,-1.7991785624475776e-16
0.14409708976745605,0.0013522400068533824,0.0011643311005379159,-1.7990603018250566e-16,-1.7994062449037996e-16
0.1451706886291504,0.0013522400068556116,0.0011643311005528393,-1.7991166803380257e-16,-1.799603569699192e-16
0.14693760871887207,0.0013522400068578407,0.0011643311005677625,-1.7998734534544207e-16,-1.7992327725562018e-16
0.1472163200378418,0.0013522400068600698,0.0011643311005826858,-1.7990169337381572e-16,-1.7994929810775984e-16
0.14748883247375488,0.001352240006862299,0.001164331100597609,-1.7996002345069544e-16,-1.7993195087300006e-16
0.1476738452911377,0.001352240006864528,0.0011643311006125322,-1.799320510346453e-16,-1.7992457829822716e-16
0.15290260314941406,0.001352240006866757,0.0011643311006274554,-1.799548192802675e-16,-1.7992696354300662e-16
0.15373611450195312,0.0013522400068689858,0.0011643311006423785,-1.7993443627942477e-16,-1.7994734654384936e-16
0.15779876708984375,0.0013522400068712147,0.0011643311006573017,-1.7994571198201862e-16,-1.7991525415954378e-16
0.16463088989257812,0.0013522400068734437,0.0011643311006722247,-1.7992836474725885e-16,-1.7995558648036025e-16
0.16493964195251465,0.0013522400068756726,0.0011643311006871476,-1.7989670604382228e-16,-1.7993086667082758e-16
0.16749978065490723,0.0013522400068779015,0.0011643311007020706,-1.7990060917164323e-16,-1.7996903058729908e-16
0.16786646842956543,0.0013522400068801304,0.0011643311007169936,-1.7997541912154474e-16,-1.7993260139430356e-16
0.17772293090820312,0.0013522400068823593,0.0011643311007319165,-1.799719496745928e-16,-1.799369382029935e-16
0.17804622650146484,0.0013522400068845882,0.0011643311007468393,-1.799411583328942e-16,-1.7995753804427073e-16
0.17827916145324707,0.001352240006886817,0.001164331100761762,-1.7992251005552744e-16,-1.799154709999783e-16
0.18295598030090332,0.001352240006889046,0.0011643311007766847,-1.7991275223597508e-16,-1.7996556114034713e-16
0.18575024604797363,0.0013522400068912749,0.0011643311007916075,-1.7994788038636362e-16,-1.7992110885127522e-16
0.19765663146972656,0.0013522400068935038,0.0011643311008065302,-1.7991839008727202e-16,-1.7993368559647605e-16
0.19804668426513672,0.0013522400068957327,0.001164331100821453,-1.799439772585427e-16,-1.799286982664826e-16
0.20669054985046387,0.0013522400068979616,0.0011643311008363757,-1.7991166803380262e-16,-1.7993563716038652e-16
0.2116844654083252,0.0013522400069001905,0.0011643311008512982,-1.7994788038636364e-16,-1.7992349409605468e-16
0.2161083221435547,0.0013522400069024194,0.0011643311008662208,-1.7993161735377635e-16,-1.7996035696991918e-16
0.218719482421875,0.001352240006904648,0.0011643311008811433,-1.7994332673723919e-16,-1.799211088512752e-16
0.23876595497131348,0.0013522400069068768,0.0011643311008960658,-1.799431098968047e-16,-1.7991243523389531e-16
0.23901057243347168,0.0013522400069091054,0.0011643311009109883,-1.7988391245818698e-16,-1.7994474445863538e-16
0.23919367790222168,0.0013522400069113341,0.0011643311009259106,-1.7993617100290078e-16,-1.7993303507517255e-16
0.23947548866271973,0.0013522400069135628,0.001164331100940833,-1.7989995865033976e-16,-1.7996838006599558e-16
0.23967361450195312,0.0013522400069157915,0.0011643311009557553,-1.7990819858685065e-16,-1.7994300973515942e-16
0.23990464210510254,0.0013522400069180202,0.0011643311009706776,-1.7994050781159072e-16,-1.7990788158477088e-16
0.2400832176208496,0.0013522400069202489,0.0011643311009855999,-1.7993140051334183e-16,-1.7993325191560704e-16
0.24032354354858398,0.0013522400069224776,0.001164331101000522,-1.7993812256681123e-16,-1.79935854000821e-16
0.24052810668945312,0.0013522400069247062,0.001164331101015444,-1.7991231855510607e-16,-1.7993932344777294e-16
0.24071383476257324,0.001352240006926935,0.0011643311010303662,-1.799402909711562e-16,-1.7991048366998481e-16
0.24187946319580078,0.0013522400069291636,0.0011643311010452882,-1.799105838316301e-16,-1.7996816322556103e-16
0.24213147163391113,0.0013522400069313923,0.0011643311010602103,-1.7993898992854922e-16,-1.7991503731910924e-16
0.24233055114746094,0.001352240006933621,0.0011643311010751324,-1.7994245937550117e-16,-1.7993628768168995e-16
0.24252915382385254,0.0013522400069358497,0.0011643311010900545,-1.799329183963833e-16,-1.7992999930908953e-16
0.24271249771118164,0.0013522400069380784,0.0011643311011049764,-1.7993400259855579e-16,-1.799540685973187e-16
0.2428891658782959,0.001352240006940307,0.0011643311011198983,-1.7993335207725229e-16,-1.7992110885127514e-16
0.24309754371643066,0.0013522400069425357,0.0011643311011348201,-1.7993356891768678e-16,-1.7990029216956342e-16
0.2502763271331787,0.0013522400069447644,0.001164331101149742,-1.7992164269378945e-16,-1.799397571286419e-16
0.2525951862335205,0.0013522400069469929,0.0011643311011646639,-1.79916655363796e-16,-1.7992631302170307e-16
0.25731444358825684,0.0013522400069492214,0.0011643311011795858,-1.7991296907640955e-16,-1.799258793408341e-16
0.258406400680542,0.0013522400069514498,0.0011643311011945074,-1.7993942360941818e-16,-1.7993043298995852e-16
0.2595081329345703,0.0013522400069536783,0.001164331101209429,-1.799465793437566e-16,-1.7995103283123575e-16
0.2646608352661133,0.0013522400069559068,0.0011643311012243507,-1.799530845567915e-16,-1.7992089201084065e-16
0.26664066314697266,0.0013522400069581352,0.0011643311012392724,-1.7991860692770646e-16,-1.799404076499454e-16
0.2679727077484131,0.0013522400069603637,0.001164331101254194,-1.7991839008727197e-16,-1.7993758872429693e-16
0.2709476947784424,0.0013522400069625922,0.0011643311012691157,-1.7992077533205143e-16,-1.7996295905513308e-16
0.27730846405029297,0.0013522400069648206,0.0011643311012840374,-1.7992532898117586e-16,-1.7990506265912234e-16
0.2801642417907715,0.0013522400069670491,0.0011643311012989588,-1.7995590348243994e-16,-1.7991330259563323e-16
0.2820312976837158,0.0013522400069692776,0.0011643311013138802,-1.7989713972469124e-16,-1.7995862224644312e-16
0.28975582122802734,0.001352240006971506,0.0011643311013288017,-1.7997086547242026e-16,-1.7992848142604802e-16
0.3016183376312256,0.0013522400069737345,0.0011643311013437231,-1.7992511214074137e-16,-1.7993802240516589e-16
0.30196166038513184,0.001352240006975963,0.0011643311013586444,-1.7996956442981328e-16,-1.7992371093648907e-16
0.30228519439697266,0.0013522400069781915,0.0011643311013735656,-1.7992814790682433e-16,-1.7994170869255232e-16
0.30388522148132324,0.00135224000698042,0.0011643311013884868,-1.7992858158769331e-16,-1.7996946426816796e-16
0.3121984004974365,0.0013522400069826484,0.001164331101403408,-1.799303163111693e-16,-1.7992783090474452e-16
0.31252074241638184,0.0013522400069848766,0.0011643311014183292,-1.7993552048159723e-16,-1.7996317589556755e-16
0.31731367111206055,0.0013522400069871051,0.0011643311014332505,-1.7989063451165633e-16,-1.799443107777663e-16
0.3327486515045166,0.0013522400069893336,0.0011643311014481715,-1.799452783011496e-16,-1.799362876816899e-16
0.3372807502746582,0.0013522400069915618,0.0011643311014630925,-1.798999586503397e-16,-1.7996295905513305e-16
0.3429255485534668,0.00135224000699379,0.0011643311014780135,-1.7995612032287446e-16,-1.7994235921385582e-16
0.34867048263549805,0.0013522400069960183,0.0011643311014929345,-1.7994939826940506e-16,-1.7990961630824677e-16
0.34903717041015625,0.0013522400069982466,0.0011643311015078555,-1.7991210171467155e-16,-1.7994712970341477e-16
0.3492586612701416,0.0013522400070004748,0.0011643311015227765,-1.7991882376814095e-16,-1.799224098938821e-16
0.3543057441711426,0.001352240007002703,0.0011643311015376973,-1.7992706370465185e-16,-1.7995840540600862e-16
0.3579697608947754,0.0013522400070049314,0.001164331101552618,-1.7988955030948385e-16,-1.7993802240516589e-16
0.35998106002807617,0.0013522400070071596,0.0011643311015675389,-1.7994094149245965e-16,-1.7993303507517245e-16
0.36110854148864746,0.0013522400070093879,0.0011643311015824597,-1.7999233267543546e-16,-1.799213256917096e-16
0.368915319442749,0.0013522400070116161,0.0011643311015973805,-1.79913619597713e-16,-1.799811736516308e-16
0.37171506881713867,0.0013522400070138444,0.001164331101612301,-1.7992597950247934e-16,-1.7994756338428375e-16
0.3720693588256836,0.0013522400070160726,0.0011643311016272216,-1.7996414341895084e-16,-1.799139531169367e-16
0.37231898307800293,0.0013522400070183009,0.0011643311016421422,-1.7993183419421077e-16,-1.798992079673909e-16
0.373779296875,0.0013522400070205291,0.0011643311016570628,-1.799376888859422e-16,-1.7989747324391493e-16
0.37616634368896484,0.0013522400070227574,0.0011643311016719833,-1.798921523946978e-16,-1.799746684385959e-16
0.38989853858947754,0.0013522400070249856,0.001164331101686904,-1.799459288224531e-16,-1.799148204786747e-16
0.39026689529418945,0.0013522400070272139,0.0011643311017018245,-1.7990884910815408e-16,-1.7993542031995193e-16
0.3937947750091553,0.0013522400070294421,0.0011643311017167448,-1.7996891390850978e-16,-1.7994257605429034e-16
0.3952953815460205,0.0013522400070316702,0.0011643311017316652,-1.7994961510983953e-16,-1.7994344341602833e-16
0.4026937484741211,0.0013522400070338982,0.0011643311017465856,-1.7993920676898367e-16,-1.7992479513866158e-16
0.4030189514160156,0.0013522400070361262,0.001164331101761506,-1.7995004879070851e-16,-1.7992631302170305e-16
0.4202544689178467,0.0013522400070383543,0.0011643311017764263,-1.7993205103464526e-16,-1.7995536963992566e-16
0.42072129249572754,0.0013522400070405823,0.0011643311017913464,-1.7998582746240055e-16,-1.799141699573712e-16
0.4209883213043213,0.0013522400070428103,0.0011643311018062665,-1.7994549514158408e-16,-1.7991373627650222e-16
0.421344518661499,0.0013522400070450384,0.0011643311018211867,-1.7993985729028717e-16,-1.7991698888301967e-16
0.4227476119995117,0.0013522400070472664,0.0011643311018361068,-1.799311836729073e-16,-1.7994929810775974e-16
0.423022985458374,0.0013522400070494944,0.001164331101851027,-1.7991882376814095e-16,-1.799525507142772e-16
0.4233133792877197,0.0013522400070517225,0.001164331101865947,-1.7993161735377628e-16,-1.799605738103536e-16
0.4247448444366455,0.0013522400070539505,0.001164331101880867,-1.7994267621593564e-16,-1.7994300973515932e-16
0.4316437244415283,0.0013522400070561786,0.001164331101895787,-1.799235942576999e-16,-1.7997683684294086e-16
0.43189454078674316,0.0013522400070584066,0.0011643311019107069,-1.7992706370465185e-16,-1.7990376161651534e-16
0.43207359313964844,0.0013522400070606346,0.0011643311019256268,-1.798928029160013e-16,-1.7997596948120287e-16
0.4322817325592041,0.0013522400070628627,0.0011643311019405467,-1.7996284237634386e-16,-1.799126520743297e-16
0.43860793113708496,0.0013522400070650907,0.0011643311019554666,-1.7991275223597503e-16,-1.799061468612948e-16
0.4389770030975342,0.0013522400070673185,0.0011643311019703866,-1.7992836474725882e-16,-1.7998334205597577e-16
0.439272403717041,0.0013522400070695465,0.0011643311019853063,-1.7991145119336805e-16,-1.7994582866080777e-16
0.4531741142272949,0.0013522400070717744,0.001164331102000226,-1.7993400259855576e-16,-1.7992306041518557e-16
0.453441858291626,0.0013522400070740022,0.0011643311020151457,-1.7991882376814095e-16,-1.7994821390558723e-16
0.45362257957458496,0.00135224000707623,0.0011643311020300654,-1.799767201641517e-16,-1.7991915728736462e-16
0.45378661155700684,0.0013522400070784578,0.001164331102044985,-1.7993226787507978e-16,-1.7996621166165048e-16
0.4540376663208008,0.0013522400070806856,0.0011643311020599046,-1.7992706370465185e-16,-1.7993455295821392e-16
0.45422887802124023,0.0013522400070829135,0.001164331102074824,-1.7990494598033315e-16,-1.7994929810775971e-16
0.4750399589538574,0.0013522400070851413,0.0011643311020897436,-1.7995720452504695e-16,-1.7992609618126853e-16
0.4756021499633789,0.001352240007087369,0.001164331102104663,-1.7995568664200548e-16,-1.7994040764994535e-16
0.4759514331817627,0.001352240007089597,0.0011643311021195825,-1.7993270155594879e-16,-1.7994734654384926e-16
0.4762246608734131,0.0013522400070918247,0.001164331102134502,-1.7992901526856232e-16,-1.7990224373347387e-16
0.4795808792114258,0.0013522400070940526,0.0011643311021494213,-1.7992749738552085e-16,-1.7994647918211127e-16
0.47991323471069336,0.0013522400070962804,0.0011643311021643406,-1.799021270546847e-16,-1.7995298439514618e-16
0.4800999164581299,0.0013522400070985082,0.0011643311021792598,-1.7994354357767365e-16,-1.7992761406431002e-16
0.4859800338745117,0.001352240007100736,0.0011643311021941791,-1.7995915608895745e-16,-1.7993585400082092e-16
0.48627781867980957,0.0013522400071029638,0.0011643311022090984,-1.7993096683247282e-16,-1.7996100749122258e-16
0.4864919185638428,0.0013522400071051916,0.0011643311022240177,-1.799025607355537e-16,-1.799523338738427e-16
0.48777318000793457,0.0013522400071074195,0.0011643311022389367,-1.7995612032287449e-16,-1.79929782468655e-16
0.48800015449523926,0.0013522400071096473,0.0011643311022538558,-1.799316173537763e-16,-1.7993260139430346e-16
0.492901086807251,0.001352240007111875,0.0011643311022687748,-1.799383394072457e-16,-1.7996144117209159e-16
0.49995899200439453,0.0013522400071141027,0.0011643311022836939,-1.7991361959771302e-16,-1.7994235921385585e-16
0.5010941028594971,0.0013522400071163303,0.001164331102298613,-1.7992728054508634e-16,-1.7993238455386897e-16
0.501335859298706,0.001352240007118558,0.0011643311023135318,-1.7995351823766048e-16,-1.7994344341602833e-16
0.5015747547149658,0.0013522400071207855,0.0011643311023284506,-1.7990191021425016e-16,-1.7993433611777945e-16
0.5023624897003174,0.0013522400071230131,0.0011643311023433695,-1.7993465311985921e-16,-1.7991655520215069e-16
0.5096583366394043,0.0013522400071252407,0.0011643311023582883,-1.7995286771635696e-16,-1.7995883908687763e-16
0.5127007961273193,0.0013522400071274683,0.0011643311023732071,-1.7995200035461897e-16,-1.7992132569170963e-16
0.5133657455444336,0.001352240007129696,0.001164331102388126,-1.7993552048159718e-16,-1.7994235921385585e-16
0.5185980796813965,0.0013522400071319235,0.0011643311024030446,-1.7993053315160374e-16,-1.7994149185211786e-16
0.518895149230957,0.0013522400071341511,0.0011643311024179632,-1.7995937292939186e-16,-1.7992783090474454e-16
0.5215098857879639,0.0013522400071363787,0.0011643311024328818,-1.7996219185504033e-16,-1.799230604151856e-16
0.5241804122924805,0.0013522400071386063,0.0011643311024478005,-1.7996262553590932e-16,-1.7992696354300655e-16
0.5266842842102051,0.001352240007140834,0.001164331102462719,-1.7994397725854256e-16,-1.7995255071427722e-16
0.5308482646942139,0.0013522400071430615,0.0011643311024776377,-1.7993400259855569e-16,-1.799460455012423e-16
0.5358848571777344,0.0013522400071452891,0.0011643311024925561,-1.7993573732203167e-16,-1.7992067517040616e-16
0.5413162708282471,0.0013522400071475167,0.0011643311025074745,-1.79911017512499e-16,-1.7993411927734498e-16
0.5416967868804932,0.0013522400071497443,0.001164331102522393,-1.7994592882245302e-16,-1.7995992328905014e-16
0.5419542789459229,0.0013522400071519717,0.0011643311025373113,-1.7991990797031336e-16,-1.7993867292646944e-16
0.5472350120544434,0.001352240007154199,0.0011643311025522297,-1.7990668070380903e-16,-1.799044121378189e-16
0.5477275848388672,0.0013522400071564265,0.0011643311025671481,-1.7994961510983945e-16,-1.7994387709689737e-16
0.5484457015991211,0.0013522400071586539,0.0011643311025820663,-1.7994224253506656e-16,-1.7993043298995854e-16
0.5495913028717041,0.0013522400071608813,0.0011643311025969845,-1.7994896458853595e-16,-1.7996426009774008e-16
0.5505211353302002,0.0013522400071631086,0.0011643311026119027,-1.799392067689836e-16,-1.7994409393733186e-16
0.5514843463897705,0.001352240007165336,0.0011643311026268209,-1.799539519185294e-16,-1.7989942480782545e-16
0.557098388671875,0.0013522400071675634,0.001164331102641739,-1.7995742136548134e-16,-1.7991308575519877e-16
0.5581200122833252,0.0013522400071697908,0.001164331102656657,-1.799164385233614e-16,-1.799466960225458e-16
0.5594937801361084,0.0013522400071720182,0.001164331102671575,-1.7992836474725872e-16,-1.7993433611777947e-16
0.5624353885650635,0.0013522400071742456,0.001164331102686493,-1.7998062329197252e-16,-1.7991330259563326e-16
0.6219985485076904,0.001352240007176473,0.001164331102701411,-1.7994115833289405e-16,-1.7992045832997167e-16
0.6239109039306641,0.0013522400071942918,0.0011643311028207534,-1.7996804654677172e-16,-1.7993455295821396e-16
0.6242885589599609,0.001352240007196519,0.001164331102835671,-1.7993595416246614e-16,-1.7993476979864846e-16
0.6245176792144775,0.0013522400071987462,0.0011643311028505885,-1.7989844076729814e-16,-1.7992240989388212e-16
0.6247198581695557,0.0013522400072009733,0.001164331102865506,-1.7994874774810146e-16,-1.7991200155302626e-16
0.6249561309814453,0.0013522400072032005,0.0011643311028804236,-1.7991947428944436e-16,-1.7992175937257862e-16
0.6251339912414551,0.0013522400072054277,0.0011643311028953411,-1.7997693700458608e-16,-1.799219762130131e-16
0.6253747940063477,0.0013522400072076548,0.0011643311029102587,-1.799300994707347e-16,-1.7990246057390836e-16
0.6257433891296387,0.001352240007209882,0.001164331102925176,-1.7998821270717994e-16,-1.7990332793564636e-16
0.6260833740234375,0.0013522400072121092,0.0011643311029400933,-1.799546024398329e-16,-1.7992652986213754e-16
0.6264286041259766,0.0013522400072143363,0.0011643311029550106,-1.799227268959618e-16,-1.7991742256388865e-16
0.6268246173858643,0.0013522400072165635,0.001164331102969928,-1.7996392657851627e-16,-1.7990853210607426e-16
0.6317918300628662,0.0013522400072187907,0.0011643311029848453,-1.7989063451165626e-16,-1.7993368559647592e-16
0.6320626735687256,0.0013522400072210178,0.0011643311029997624,-1.7992099217248585e-16,-1.7992479513866153e-16
0.6349067687988281,0.001352240007223245,0.0011643311030146797,-1.7990603018250556e-16,-1.7996924742773344e-16
0.6351833343505859,0.0013522400072254722,0.0011643311030295968,-1.7992120901292037e-16,-1.7993997396907634e-16
0.6357319355010986,0.0013522400072276993,0.001164331103044514,-1.7997498544067566e-16,-1.7989530483956993e-16
0.6446809768676758,0.0013522400072299265,0.001164331103059431,-1.7994397725854256e-16,-1.7991460363824019e-16
0.645012378692627,0.0013522400072321535,0.001164331103074348,-1.7996934758937872e-16,-1.798983406056529e-16
0.647618293762207,0.0013522400072343804,0.0011643311030892652,-1.7993812256681113e-16,-1.799495149481942e-16
0.6509673595428467,0.0013522400072366074,0.001164331103104182,-1.7989041767122177e-16,-1.799208920108406e-16
0.6578981876373291,0.0013522400072388343,0.001164331103119099,-1.7997368439806866e-16,-1.7996903058729895e-16
0.6637833118438721,0.0013522400072410613,0.0011643311031340159,-1.7991470379988543e-16,-1.7991980780866812e-16
0.6681501865386963,0.0013522400072432882,0.0011643311031489328,-1.799470130246255e-16,-1.7993173403256545e-16
0.6684732437133789,0.0013522400072455152,0.0011643311031638496,-1.7994397725854254e-16,-1.7994192553298681e-16
0.6760067939758301,0.0013522400072477421,0.0011643311031787663,-1.7993400259855566e-16,-1.7993390243691041e-16
0.677891731262207,0.001352240007249969,0.001164331103193683,-1.7993270155594869e-16,-1.7993737188386236e-16
0.6826117038726807,0.001352240007252196,0.0011643311032085997,-1.7992879842812773e-16,-1.7993130035169644e-16
0.6937005519866943,0.001352240007254423,0.0011643311032235163,-1.7992207637465833e-16,-1.7990723106346726e-16
0.6939671039581299,0.00135224000725665,0.001164331103238433,-1.7992164269378935e-16,-1.7994647918211125e-16
0.6941628456115723,0.0013522400072588769,0.0011643311032533497,-1.7993443627942467e-16,-1.7993975712864185e-16
0.7017273902893066,0.0013522400072611038,0.0011643311032682661,-1.7994224253506656e-16,-1.7991568784041267e-16
0.7101907730102539,0.0013522400072633308,0.0011643311032831826,-1.799392067689836e-16,-1.7991828992562662e-16
0.7128350734710693,0.0013522400072655577,0.001164331103298099,-1.7994289305637006e-16,-1.7991048366998474e-16
0.7149155139923096,0.0013522400072677847,0.0011643311033130155,-1.7994918142897047e-16,-1.799347697986484e-16
0.7151739597320557,0.0013522400072700116,0.001164331103327932,-1.799322678750797e-16,-1.7995493595905663e-16
0.7307796478271484,0.0013522400072722386,0.0011643311033428484,-1.7992706370465177e-16,-1.7993130035169644e-16
0.7311582565307617,0.0013522400072744653,0.0011643311033577646,-1.7988955030948377e-16,-1.7992089201084058e-16
0.7317137718200684,0.001352240007276692,0.0011643311033726809,-1.799608908124333e-16,-1.799334687560414e-16
0.7360773086547852,0.0013522400072789188,0.001164331103387597,-1.7995221719505343e-16,-1.7993542031995188e-16
0.7713315486907959,0.0013522400072811455,0.0011643311034025133,-1.799248953003068e-16,-1.7991048366998471e-16
0.7725217342376709,0.0013522400072833723,0.0011643311034174296,-1.7993400259855569e-16,-1.7993758872429685e-16
0.7728102207183838,0.001352240007285599,0.0011643311034323456,-1.7993421943899018e-16,-1.799568875229671e-16
0.773000955581665,0.0013522400072878257,0.0011643311034472616,-1.7989345343730473e-16,-1.7990441213781882e-16
0.7732639312744141,0.0013522400072900525,0.0011643311034621776,-1.799396404498526e-16,-1.7993130035169646e-16
0.7735090255737305,0.0013522400072922792,0.0011643311034770937,-1.799396404498526e-16,-1.7991785624475764e-16
0.7737090587615967,0.001352240007294506,0.0011643311034920097,-1.7994137517332859e-16,-1.7992544565996503e-16
0.7739048004150391,0.0013522400072967327,0.0011643311035069257,-1.7992793106638976e-16,-1.7992240989388207e-16
0.7741270065307617,0.0013522400072989594,0.0011643311035218417,-1.7995351823766043e-16,-1.799204583299716e-16
0.7776129245758057,0.0013522400073011861,0.0011643311035367575,-1.799183900872719e-16,-1.7996577798078147e-16
0.7782611846923828,0.0013522400073034129,0.0011643311035516733,-1.799322678750797e-16,-1.7992024148953708e-16
0.7791974544525146,0.0013522400073056396,0.0011643311035665891,-1.7994354357767356e-16,-1.79927180383441e-16
0.7803428173065186,0.0013522400073078663,0.001164331103581505,-1.799181732468374e-16,-1.799410581712488e-16
0.7821955680847168,0.001352240007310093,0.0011643311035964207,-1.7995720452504687e-16,-1.7993888976690383e-16
0.7876269817352295,0.0013522400073123198,0.0011643311036113365,-1.799036449377261e-16,-1.79925445659965e-16
0.7880575656890869,0.0013522400073145463,0.0011643311036262521,-1.7993009947073473e-16,-1.7994712970341472e-16
0.8046927452087402,0.0013522400073167728,0.0011643311036411677,-1.7989432079904272e-16,-1.7993607084125536e-16
0.8059999942779541,0.0013522400073189994,0.0011643311036560833,-1.7991427011901645e-16,-1.7993151719213093e-16
0.8073797225952148,0.0013522400073212259,0.0011643311036709989,-1.7996717918503375e-16,-1.7993498663908287e-16
0.8076438903808594,0.0013522400073234524,0.0011643311036859145,-1.799246784598723e-16,-1.7995732120383607e-16
0.8100042343139648,0.001352240007325679,0.00116433110370083,-1.799411583328941e-16,-1.7989357011609392e-16
0.8105993270874023,0.0013522400073279054,0.0011643311037157454,-1.7992858158769327e-16,-1.7995320123558062e-16
0.8145251274108887,0.001352240007330132,0.0011643311037306608,-1.799695644298132e-16,-1.799013763717358e-16
0.8148393630981445,0.0013522400073323585,0.0011643311037455762,-1.7994180885419757e-16,-1.7993043298995842e-16
0.8224830627441406,0.001352240007334585,0.0011643311037604915,-1.799322678750797e-16,-1.7993281823473788e-16
0.8229672908782959,0.0013522400073368115,0.0011643311037754069,-1.7990884910815403e-16,-1.7991872360649556e-16
0.823298454284668,0.001352240007339038,0.001164331103790322,-1.799474467054945e-16,-1.7992652986213744e-16
0.8275079727172852,0.0013522400073412645,0.0011643311038052372,-1.7991275223597498e-16,-1.7996491061904343e-16
0.8305127620697021,0.001352240007343491,0.0011643311038201523,-1.7996414341895079e-16,-1.7991633836171607e-16
0.837956428527832,0.0013522400073457176,0.0011643311038350675,-1.7993053315160374e-16,-1.799523338738426e-16
0.8486518859863281,0.001352240007347944,0.0011643311038499827,-1.7992185953422387e-16,-1.7992089201084053e-16
0.8629128932952881,0.0013522400073501706,0.0011643311038648978,-1.7993226787507973e-16,-1.7991351943606763e-16
0.9124112129211426,0.0013522400073523971,0.001164331103879813,-1.7992099217248587e-16,-1.7992804774517893e-16
0.912853479385376,0.0013522400073546236,0.001164331103894728,-1.7992576266204482e-16,-1.7993346875604136e-16
0.9132421016693115,0.00135224000735685,0.0011643311039096428,-1.799203416511824e-16,-1.7993216771343438e-16
0.9134767055511475,0.0013522400073590762,0.0011643311039245578,-1.7992489530030683e-16,-1.799380224051658e-16
0.9224488735198975,0.0013522400073613025,0.0011643311039394727,-1.799270637046518e-16,-1.7994452761820072e-16
0.9241955280303955,0.0013522400073635288,0.0011643311039543876,-1.7994289305637008e-16,-1.7993585400082084e-16
0.9251391887664795,0.0013522400073657551,0.0011643311039693024,-1.7990017549077415e-16,-1.799167720425851e-16
0.9259216785430908,0.0013522400073679814,0.001164331103984217,-1.799337857581212e-16,-1.7994279289472476e-16
0.9269819259643555,0.0013522400073702077,0.0011643311039991318,-1.798945376394772e-16,-1.7992718038344097e-16
0.9297404289245605,0.001352240007372434,0.0011643311040140465,-1.7990733122511253e-16,-1.7992002464910256e-16
0.930330753326416,0.0013522400073746603,0.0011643311040289612,-1.7995785504635035e-16,-1.7995059915036664e-16
0.9341850280761719,0.0013522400073768866,0.001164331104043876,-1.7991925744900986e-16,-1.7996469377860897e-16
0.934751033782959,0.001352240007379113,0.0011643311040587905,-1.7993421943899015e-16,-1.7991915728736457e-16
0.9410929679870605,0.0013522400073813392,0.001164331104073705,-1.7993595416246614e-16,-1.7990527949955676e-16
0.9485471248626709,0.0013522400073835655,0.0011643311040886195,-1.799461456628875e-16,-1.7995385175688412e-16
0.9490280151367188,0.0013522400073857918,0.001164331104103534,-1.7997086547242019e-16,-1.799477802247182e-16
0.9516358375549316,0.0013522400073880181,0.0011643311041184485,-1.7994202569463206e-16,-1.7991590468084711e-16
0.9523344039916992,0.0013522400073902444,0.0011643311041333627,-1.7989193555426323e-16,-1.7997596948120282e-16
0.953669548034668,0.0013522400073924705,0.001164331104148277,-1.7992597950247929e-16,-1.79924144617358e-16
0.9595022201538086,0.0013522400073946966,0.0011643311041631913,-1.7993421943899018e-16,-1.7992674670257196e-16
0.9597947597503662,0.001352240007396923,0.0011643311041781056,-1.7990841542728502e-16,-1.7997943892815476e-16
0.9612374305725098,0.001352240007399149,0.0011643311041930199,-1.7994180885419757e-16,-1.799185067660611e-16
0.9639155864715576,0.001352240007401375,0.0011643311042079342,-1.7992793106638976e-16,-1.7995103283123565e-16
0.9703569412231445,0.0013522400074036012,0.0011643311042228482,-1.7994549514158403e-16,-1.798950879991354e-16
0.9751472473144531,0.0013522400074058272,0.0011643311042377623,-1.799697812702477e-16,-1.799169888830196e-16
0.9773721694946289,0.0013522400074080533,0.0011643311042526764,-1.7994527830114952e-16,-1.7989638904174237e-16
0.9921524524688721,0.0013522400074102794,0.0011643311042675904,-1.7988499666035932e-16,-1.7993563716038635e-16
0.99692702293396,0.0013522400074125055,0.0011643311042825045,-1.7994766354592898e-16,-1.799317340325654e-16
0.9998834133148193,0.0013522400074147316,0.0011643311042974186,-1.7996631182329573e-16,-1.7992154253214403e-16
1.0026845932006836,0.0013522400074169577,0.0011643311043123324,-1.7990646386337454e-16,-1.7994431077776623e-16
1.0049917697906494,0.0013522400074191838,0.0011643311043272463,-1.799242447790033e-16,-1.799239277769235e-16
1.0085408687591553,0.0013522400074214098,0.0011643311043421601,-1.799112343529335e-16,-1.799668621829539e-16
1.0088157653808594,0.001352240007423636,0.001164331104357074,-1.7994441093941155e-16,-1.7992566250039945e-16
1.0119502544403076,0.001352240007425862,0.0011643311043719878,-1.7991557116162343e-16,-1.799052794995567e-16
1.0127143859863281,0.001352240007428088,0.0011643311043869017,-1.7993768888594213e-16,-1.799512496716701e-16
1.0137505531311035,0.0013522400074303142,0.0011643311044018153,-1.799251121407413e-16,-1.7994712970341465e-16
1.0147671699523926,0.0013522400074325403,0.001164331104416729,-1.799166553637959e-16,-1.7994105817124872e-16
1.0187225341796875,0.0013522400074347663,0.0011643311044316426,-1.7991578800205792e-16,-1.7993455295821382e-16
1.0217111110687256,0.0013522400074369922,0.0011643311044465562,-1.7988911662861476e-16,-1.7994691286298016e-16
1.02474045753479,0.001352240007439218,0.0011643311044614699,-1.799381225668111e-16,-1.7990809842520518e-16
1.0250098705291748,0.0013522400074414442,0.0011643311044763833,-1.7996067397199882e-16,-1.799295656282204e-16
1.0276196002960205,0.00135224000744367,0.0011643311044912967,-1.7990407861859508e-16,-1.799883293859691e-16
1.034402847290039,0.001352240007445896,0.0011643311045062101,-1.7996501078068875e-16,-1.7993997396907626e-16
1.0417463779449463,0.0013522400074481218,0.0011643311045211235,-1.7995243403548792e-16,-1.799295656282204e-16
1.0485429763793945,0.0013522400074503476,0.001164331104536037,-1.7994441093941152e-16,-1.799588390868775e-16
1.0565428733825684,0.0013522400074525735,0.0011643311045509504,-1.7991145119336796e-16,-1.799449612990697e-16
1.059894323348999,0.0013522400074547994,0.0011643311045658636,-1.7993161735377618e-16,-1.799451781395042e-16
1.0631227493286133,0.0013522400074570252,0.0011643311045807768,-1.7992728054508624e-16,-1.798992079673908e-16
1.0668282508850098,0.001352240007459251,0.00116433110459569,-1.7992034165118232e-16,-1.7991612152128158e-16
1.067108154296875,0.001352240007461477,0.0011643311046106032,-1.7996240869547475e-16,-1.7992436145779247e-16
1.0673742294311523,0.0013522400074637028,0.0011643311046255164,-1.79944194098977e-16,-1.799514665121046e-16
1.0707063674926758,0.0013522400074659287,0.0011643311046404296,-1.7990299441642255e-16,-1.7996751270425739e-16
1.0711524486541748,0.0013522400074681546,0.0011643311046553426,-1.7993833940724558e-16,-1.7992674670257193e-16
1.075033187866211,0.0013522400074703804,0.0011643311046702555,-1.799127522359749e-16,-1.7997683684294076e-16
1.0779130458831787,0.0013522400074726063,0.0011643311046851685,-1.7993291839638313e-16,-1.7991894044693002e-16
1.0783402919769287,0.001352240007474832,0.0011643311047000815,-1.7992663002378271e-16,-1.7991568784041257e-16
1.0802464485168457,0.0013522400074770578,0.0011643311047149945,-1.799355204815971e-16,-1.7992869826648239e-16
1.0806257724761963,0.0013522400074792835,0.0011643311047299075,-1.7995698768461233e-16,-1.7990723106346716e-16
1.0875301361083984,0.0013522400074815091,0.0011643311047448202,-1.7991925744900984e-16,-1.7994539497993866e-16
1.088306188583374,0.0013522400074837348,0.001164331104759733,-1.7989367027773917e-16,-1.7993845608603475e-16
1.0890910625457764,0.0013522400074859604,0.0011643311047746458,-1.7989735656512563e-16,-1.7995233387384255e-16
1.0987517833709717,0.001352240007488186,0.0011643311047895585,-1.7999038111152488e-16,-1.798959553608733e-16
1.1061532497406006,0.0013522400074904117,0.0011643311048044713,-1.7994007413072156e-16,-1.7994626234167663e-16
1.1066057682037354,0.0013522400074926374,0.001164331104819384,-1.7994918142897045e-16,-1.798963890417423e-16
1.106971025466919,0.001352240007494863,0.0011643311048342966,-1.7994788038636347e-16,-1.7992371093648892e-16
1.1079208850860596,0.0013522400074970887,0.0011643311048492092,-1.798852135007938e-16,-1.7994409393733166e-16
1.1089975833892822,0.0013522400074993143,0.0011643311048641217,-1.79945061460715e-16,-1.7991612152128153e-16
1.1100959777832031,0.00135224000750154,0.0011643311048790343,-1.799745517598066e-16,-1.799247951386614e-16
1.110938310623169,0.0013522400075037656,0.0011643311048939468,-1.7992012481074783e-16,-1.7995081599080106e-16
1.111717939376831,0.0013522400075059913,0.0011643311049088592,-1.7992814790682423e-16,-1.7993650452212424e-16
1.1477487087249756,0.001352240007508217,0.0011643311049237715,-1.7992814790682423e-16,-1.79917205723454e-16
1.1481101512908936,0.0013522400075104426,0.0011643311049386838,-1.7991080067206445e-16,-1.7994409393733164e-16
1.152646541595459,0.0013522400075126682,0.0011643311049535962,-1.7995546980157086e-16,-1.7992154253214393e-16
1.1539130210876465,0.0013522400075171195,0.0011643311049834208,-1.7993248471551417e-16,-1.7993368559647577e-16
1.154167652130127,0.001352240007519345,0.0011643311049983332,-1.7994224253506653e-16,-1.799462623416766e-16
1.1639986038208008,0.0013522400075215704,0.0011643311050132453,-1.7993335207725214e-16,-1.7996079065078791e-16
1.1755139827728271,0.0013522400075237958,0.0011643311050281574,-1.7994224253506653e-16,-1.7991091735085358e-16
1.1758410930633545,0.001352240007534923,0.0011643311051027175,-1.799144869594509e-16,-1.7996382641687087e-16
1.1799540519714355,0.0013522400075371484,0.0011643311051176294,-1.7991969112987882e-16,-1.7992978246865482e-16
1.181635856628418,0.0013522400075393739,0.0011643311051325413,-1.7989041767122172e-16,-1.799532012355805e-16
1.1820759773254395,0.0013522400075415993,0.0011643311051474532,-1.7993031631116918e-16,-1.79915904680847e-16
1.1823127269744873,0.0013522400075438247,0.0011643311051623651,-1.7990624702294e-16,-1.7991785624475747e-16
1.1849327087402344,0.0013522400075460502,0.0011643311051772768,-1.7996392657851622e-16,-1.7994127501168314e-16
1.1852283477783203,0.0013522400075482756,0.0011643311051921885,-1.7994809722679794e-16,-1.799232772556199e-16
1.1854746341705322,0.001352240007550501,0.0011643311052071002,-1.799144869594509e-16,-1.799434434160281e-16
1.1856575012207031,0.0013522400075527265,0.0011643311052220119,-1.799732507171996e-16,-1.7993411927734473e-16
1.1858241558074951,0.0013522400075549519,0.0011643311052369236,-1.7993140051334166e-16,-1.7994496129906958e-16
1.185986042022705,0.0013522400075571773,0.0011643311052518352,-1.7991123435293344e-16,-1.79949514948194e-16
1.1887357234954834,0.0013522400075594028,0.0011643311052667467,-1.7995069931201191e-16,-1.7992544565996483e-16
1.1970548629760742,0.001352240007561628,0.0011643311052816582,-1.7996913074894418e-16,-1.7995190019297347e-16
1.1973211765289307,0.0013522400075638532,0.0011643311052965696,-1.7991383643814742e-16,-1.7992587934083382e-16
1.197535514831543,0.0013522400075660784,0.0011643311053114811,-1.7994939826940494e-16,-1.7996664534251927e-16
1.1977198123931885,0.0013522400075683036,0.0011643311053263926,-1.7994289305637003e-16,-1.7990636370172907e-16
1.199998378753662,0.0013522400075705288,0.001164331105341304,-1.7994766354592898e-16,-1.7991612152128143e-16
1.2088301181793213,0.001352240007572754,0.0011643311053562153,-1.799006091716431e-16,-1.7999158199248641e-16
1.2137112617492676,0.0013522400075749793,0.0011643311053711265,-1.7991166803380247e-16,-1.7996057381035332e-16
1.2168993949890137,0.0013522400075772045,0.0011643311053860378,-1.7990754806554703e-16,-1.7994604550124201e-16
1.2247426509857178,0.0013522400075794297,0.001164331105400949,-1.7993443627942467e-16,-1.7992566250039928e-16
1.2250785827636719,0.001352240007581655,0.0011643311054158603,-1.7997173283415818e-16,-1.7992934878778574e-16
1.2252883911132812,0.0013522400075838801,0.0011643311054307715,-1.7991470379988543e-16,-1.799683800659952e-16
1.2307507991790771,0.0013522400075861054,0.0011643311054456826,-1.7993530364116266e-16,-1.7994778022471797e-16
1.2310266494750977,0.0013522400075883306,0.0011643311054605936,-1.7991166803380247e-16,-1.7992848142604772e-16
1.2312147617340088,0.0013522400075905558,0.0011643311054755046,-1.7994592882245302e-16,-1.7994756338428346e-16
1.238924503326416,0.001352240007592781,0.0011643311054904157,-1.7996002345069534e-16,-1.7989769008434912e-16
1.2391912937164307,0.0013522400075950062,0.0011643311055053267,-1.799335689176867e-16,-1.7995515279949085e-16
1.2393889427185059,0.0013522400075972314,0.0011643311055202375,-1.7990949962945753e-16,-1.7992761406430973e-16
1.2397973537445068,0.0013522400075994567,0.0011643311055351483,-1.79912318555106e-16,-1.7992718038344074e-16
1.2726712226867676,0.0013522400076016819,0.0011643311055500591,-1.799194742894444e-16,-1.7992934878778571e-16
1.2730138301849365,0.0013522400076039069,0.00116433110556497,-1.7995373507809495e-16,-1.7995623700166336e-16
1.2732560634613037,0.0013522400076061319,0.0011643311055798808,-1.799415920137631e-16,-1.7994691286297998e-16
1.2794630527496338,0.0013522400076083569,0.0011643311055947916,-1.7993161735377623e-16,-1.799375887242966e-16
1.2798678874969482,0.0013522400076105819,0.0011643311056097022,-1.799173058850994e-16,-1.7992197621301281e-16
1.2800774574279785,0.0013522400076128069,0.0011643311056246128,-1.7993812256681113e-16,-1.7993216771343418e-16
1.2802708148956299,0.0013522400076150319,0.0011643311056395234,-1.799574213654814e-16,-1.7990202689303908e-16
1.2805099487304688,0.0013522400076172569,0.001164331105654434,-1.799036449377261e-16,-1.799384560860346e-16
1.280700922012329,0.0013522400076194819,0.0011643311056693446,-1.7991643852336142e-16,-1.7994322657559354e-16
1.3006274700164795,0.0013522400076217069,0.0011643311056842552,-1.7987133571298603e-16,-1.7995276755471141e-16
1.3009004592895508,0.0013522400076239319,0.0011643311056991656,-1.7993118367290722e-16,-1.7994929810775947e-16
1.3011023998260498,0.0013522400076261569,0.001164331105714076,-1.799023438951191e-16,-1.7993845608603462e-16
1.3013474941253662,0.0013522400076283819,0.0011643311057289863,-1.7991383643814744e-16,-1.7995298439514593e-16
1.3073704242706299,0.0013522400076306069,0.0011643311057438967,-1.7992185953422384e-16,-1.7997293371511966e-16
1.3076305389404297,0.0013522400076328319,0.001164331105758807,-1.7995720452504687e-16,-1.799714158320782e-16
1.3208913803100586,0.0013522400076350569,0.0011643311057737173,-1.7992988263030024e-16,-1.7996057381035335e-16
1.335425853729248,0.0013522400076372819,0.0011643311057886274,-1.7994354357767356e-16,-1.7992457829822682e-16
1.343968391418457,0.0013522400076395069,0.0011643311058035376,-1.7991492064031995e-16,-1.7993715504342765e-16
1.3445684909820557,0.0013522400076417316,0.0011643311058184478,-1.7994657934375652e-16,-1.799321677134342e-16
1.3450102806091309,0.0013522400076439564,0.001164331105833358,-1.79948530907667e-16,-1.7992934878778574e-16
1.3497376441955566,0.0013522400076461812,0.001164331105848268,-1.7992251005552734e-16,-1.799547191186219e-16
1.3540821075439453,0.001352240007648406,0.001164331105863178,-1.7993118367290722e-16,-1.799620916933948e-16
1.365142822265625,0.0013522400076506308,0.001164331105878088,-1.7992034165118237e-16,-1.7992956562822023e-16
1.3700628280639648,0.0013522400076528556,0.001164331105892998,-1.7990884910815403e-16,-1.7994843074602148e-16
1.373291254043579,0.0013522400076550803,0.0011643311059079079,-1.7994657934375652e-16,-1.7993520347951714e-16
1.3774518966674805,0.0013522400076573051,0.0011643311059228178,-1.799166553637959e-16,-1.799304329899582e-16
1.3777668476104736,0.00135224000765953,0.0011643311059377278,-1.7992793106638976e-16,-1.7995840540600833e-16
1.3793728351593018,0.0013522400076617547,0.0011643311059526375,-1.7991795640640289e-16,-1.7993628768168963e-16
1.391685962677002,0.0013522400076639795,0.0011643311059675472,-1.7994462777984604e-16,-1.7993954028820708e-16
1.392160177230835,0.0013522400076662043,0.001164331105982457,-1.7990689754424355e-16,-1.7994387709689702e-16
1.3925731182098389,0.001352240007668429,0.0011643311059973667,-1.7991340275727846e-16,-1.7992089201084033e-16
1.4218449592590332,0.0013522400076706538,0.0011643311060122764,-1.799316173537762e-16,-1.7995363491644938e-16
1.4222171306610107,0.0013522400076728786,0.0011643311060271862,-1.7992641318334827e-16,-1.7991828992562635e-16
1.4303009510040283,0.0013522400076751034,0.0011643311060420957,-1.7995156667374993e-16,-1.7992544565996476e-16
1.4307692050933838,0.0013522400076773282,0.0011643311060570052,-1.7992836474725875e-16,-1.7993086667082718e-16
1.4311885833740234,0.0013522400076795527,0.0011643311060719147,-1.799316173537762e-16,-1.7992696354300623e-16
1.4315814971923828,0.0013522400076817775,0.0011643311060868242,-1.7991383643814744e-16,-1.7996859690642967e-16
1.4357168674468994,0.001352240007684002,0.0011643311061017337,-1.799331352368177e-16,-1.7994669602254547e-16
1.4360947608947754,0.0013522400076862267,0.001164331106116643,-1.7994961510983948e-16,-1.7994127501168304e-16
1.4384937286376953,0.0013522400076884512,0.0011643311061315523,-1.7996848022764072e-16,-1.7991612152128138e-16
1.4388322830200195,0.0013522400076906758,0.0011643311061464616,-1.7992316057683084e-16,-1.799289151069167e-16
1.4390332698822021,0.0013522400076929003,0.001164331106161371,-1.7995221719505346e-16,-1.7993607084125511e-16
1.4392194747924805,0.001352240007695125,0.0011643311061762802,-1.799333520772522e-16,-1.799453949799385e-16
1.4394502639770508,0.0013522400076973495,0.0011643311061911895,-1.799407246520251e-16,-1.799297824686547e-16
1.443596601486206,0.001352240007699574,0.0011643311062060988,-1.79911451193368e-16,-1.7991894044692985e-16
1.4554598331451416,0.0013522400077017986,0.001164331106221008,-1.7991860692770641e-16,-1.7994214237342104e-16
1.459733009338379,0.0013522400077040232,0.001164331106235917,-1.7995763820591588e-16,-1.7992566250039925e-16
1.4613583087921143,0.0013522400077062477,0.001164331106250826,-1.7997411807893766e-16,-1.7989703956304565e-16
1.4627485275268555,0.0013522400077084723,0.0011643311062657351,-1.7993205103464524e-16,-1.7994864758645597e-16
1.464139461517334,0.0013522400077106969,0.0011643311062806442,-1.7991730588509944e-16,-1.7995883908687734e-16
1.465259075164795,0.0013522400077129214,0.001164331106295553,-1.799194742894444e-16,-1.7993628768168963e-16
1.4697113037109375,0.001352240007715146,0.001164331106310462,-1.7993053315160377e-16,-1.799302161495237e-16
1.4699947834014893,0.0013522400077173706,0.0011643311063253708,-1.7994050781159064e-16,-1.7992631302170275e-16
1.473783016204834,0.0013522400077195951,0.0011643311063402797,-1.7996262553590934e-16,-1.7989465431826618e-16
1.4887831211090088,0.0013522400077218197,0.0011643311063551885,-1.7992663002378281e-16,-1.7991351943606743e-16
1.489166259765625,0.001352240007724044,0.0011643311063700974,-1.7994094149245963e-16,-1.7993650452212412e-16
1.4915564060211182,0.0013522400077262684,0.001164331106385006,-1.7993964044985265e-16,-1.7994691286297998e-16
1.4923689365386963,0.0013522400077284928,0.0011643311063999147,-1.799582887272194e-16,-1.7989660588217666e-16
1.4929263591766357,0.001352240007730717,0.0011643311064148234,-1.7994788038636354e-16,-1.79946479182111e-16
1.4958250522613525,0.0013522400077329415,0.001164331106429732,-1.7991622168292698e-16,-1.7994604550124201e-16
1.5038824081420898,0.0013522400077351658,0.0011643311064446406,-1.7993161735377628e-16,-1.798868480626243e-16
1.5059833526611328,0.0013522400077373902,0.0011643311064595493,-1.7991904060857545e-16,-1.7992089201084035e-16
1.518162727355957,0.0013522400077396145,0.0011643311064744577,-1.7993898992854918e-16,-1.799401908095106e-16
1.5201730728149414,0.0013522400077418388,0.0011643311064893662,-1.798999586503397e-16,-1.7991720572345392e-16
1.5206236839294434,0.0013522400077440632,0.0011643311065042746,-1.799307499920383e-16,-1.799623085338293e-16
1.5739123821258545,0.0013522400077462875,0.001164331106519183,-1.7992251005552742e-16,-1.799167720425849e-16
1.5742871761322021,0.001352240007748512,0.0011643311065340914,-1.799684802276408e-16,-1.7995038230993195e-16
1.574547529220581,0.0013522400077507362,0.0011643311065489999,-1.799749854406757e-16,-1.7992110885127485e-16
1.576676845550537,0.0013522400077529606,0.001164331106563908,-1.7992467845987238e-16,-1.799258793408338e-16
1.5771191120147705,0.001352240007755185,0.0011643311065788163,-1.799608908124334e-16,-1.7994539497993854e-16
1.5774717330932617,0.0013522400077574093,0.0011643311065937245,-1.7991448695945102e-16,-1.799404076499451e-16
1.5777361392974854,0.0013522400077596336,0.0011643311066086327,-1.7991600484249248e-16,-1.7990397845694959e-16
1.577944040298462,0.0013522400077618578,0.001164331106623541,-1.7993291839638325e-16,-1.7992804774517876e-16
1.5781428813934326,0.0013522400077640821,0.001164331106638449,-1.799517835141845e-16,-1.7990549633999105e-16
1.5842056274414062,0.0013522400077663063,0.001164331106653357,-1.7994918142897054e-16,-1.7993130035169622e-16
1.5881543159484863,0.0013522400077685304,0.001164331106668265,-1.7993638784333522e-16,-1.7992848142604775e-16
1.5884559154510498,0.0013522400077707545,0.001164331106683173,-1.7993942360941818e-16,-1.799388897669036e-16
1.5889205932617188,0.0013522400077729787,0.001164331106698081,-1.79952867716357e-16,-1.7990701422303252e-16
1.5920629501342773,0.0013522400077752028,0.001164331106712989,-1.799676128659028e-16,-1.7990549633999105e-16
1.5923492908477783,0.001352240007777427,0.001164331106727897,-1.7992901526856232e-16,-1.799542854377529e-16
1.5956594944000244,0.001352240007779651,0.0011643311067428047,-1.7992251005552742e-16,-1.7992284357475083e-16
1.5959117412567139,0.0013522400077818752,0.0011643311067577125,-1.7993421943899025e-16,-1.7992761406430978e-16
1.5960960388183594,0.0013522400077840993,0.0011643311067726203,-1.799383394072457e-16,-1.7993021614952373e-16
1.5971076488494873,0.0013522400077863234,0.001164331106787528,-1.79917089044665e-16,-1.7993064983039271e-16
1.6060917377471924,0.0013522400077885476,0.0011643311068024358,-1.7993595416246624e-16,-1.7991135103172246e-16
1.612720012664795,0.0013522400077907717,0.0011643311068173434,-1.79916221682927e-16,-1.7991872360649536e-16
1.622743844985962,0.0013522400077929958,0.001164331106832251,-1.7992489530030688e-16,-1.799386729264691e-16
1.622999906539917,0.00135224000779522,0.0011643311068471585,-1.7990191021425019e-16,-1.7994235921385555e-16
1.6231951713562012,0.0013522400077974441,0.001164331106862066,-1.7994918142897054e-16,-1.799302161495237e-16
1.6255602836608887,0.0013522400077996682,0.0011643311068769736,-1.799305331516038e-16,-1.79907664744336e-16
1.6278958320617676,0.0013522400078018924,0.0011643311068918812,-1.799379057263767e-16,-1.799599232890498e-16
1.6326262950897217,0.0013522400078041163,0.0011643311069067888,-1.799298826303003e-16,-1.7994647918211097e-16
1.6332125663757324,0.0013522400078063402,0.0011643311069216961,-1.799441940989771e-16,-1.799449612990695e-16
1.633946418762207,0.0013522400078085641,0.0011643311069366035,-1.7991708904466497e-16,-1.7992024148953683e-16
1.6365597248077393,0.001352240007810788,0.0011643311069515108,-1.7991904060857545e-16,-1.7991004998911546e-16
1.6373534202575684,0.001352240007813012,0.0011643311069664181,-1.7998300853675208e-16,-1.7992761406430973e-16
1.6381762027740479,0.0013522400078152359,0.0011643311069813253,-1.7995221719505348e-16,-1.7994279289472454e-16
1.6433656215667725,0.0013522400078174598,0.0011643311069962324,-1.7991665536379596e-16,-1.799232772556198e-16
1.644608497619629,0.0013522400078196837,0.0011643311070111395,-1.7994961510983953e-16,-1.7995645384209785e-16
1.6451737880706787,0.0013522400078219076,0.0011643311070260467,-1.7991969112987892e-16,-1.799295656282202e-16
1.648655891418457,0.0013522400078241315,0.0011643311070409538,-1.799721665150272e-16,-1.7992024148953683e-16
1.65169095993042,0.0013522400078263554,0.001164331107055861,-1.7991253539554051e-16,-1.799532012355804e-16
1.654698371887207,0.0013522400078285794,0.001164331107070768,-1.7991166803380252e-16,-1.7991959096823335e-16
1.6661791801452637,0.0013522400078308033,0.001164331107085675,-1.7994983195027402e-16,-1.7993737188386211e-16
1.6710703372955322,0.0013522400078330272,0.0011643311071005819,-1.7993508680072822e-16,-1.7992414461735778e-16
1.6973302364349365,0.001352240007835251,0.0011643311071154888,-1.7993942360941816e-16,-1.7995190019297342e-16
1.6980044841766357,0.001352240007837475,0.0011643311071303957,-1.7991947428944443e-16,-1.7993607084125514e-16
1.698277473449707,0.001352240007839699,0.0011643311071453026,-1.799361710029007e-16,-1.7994778022471797e-16
1.698763370513916,0.0013522400078419229,0.0011643311071602093,-1.798758893621105e-16,-1.7994951494819396e-16
1.699021577835083,0.0013522400078441466,0.0011643311071751162,-1.7991188487423704e-16,-1.799319508729997e-16
1.6992881298065186,0.0013522400078463705,0.001164331107190023,-1.7992467845987236e-16,-1.799532012355804e-16
1.7020835876464844,0.0013522400078485942,0.0011643311072049296,-1.7991318591684401e-16,-1.7992501197909578e-16
1.7034049034118652,0.0013522400078508179,0.0011643311072198363,-1.7993378575812124e-16,-1.799386729264691e-16
1.70697021484375,0.0013522400078530416,0.001164331107234743,-1.7993270155594876e-16,-1.7994300973515903e-16
1.7076842784881592,0.0013522400078552653,0.0011643311072496497,-1.7993074999203828e-16,-1.7992674670257174e-16
1.7125065326690674,0.001352240007857489,0.0011643311072645562,-1.7995373507809497e-16,-1.7991547099997788e-16
1.7133049964904785,0.0013522400078597127,0.0011643311072794627,-1.7997108231285475e-16,-1.7992045832997132e-16
1.7135818004608154,0.0013522400078619364,0.0011643311072943691,-1.7992099217248592e-16,-1.7992544565996476e-16
1.7149450778961182,0.00135224000786416,0.0011643311073092756,-1.7991166803380255e-16,-1.7991395311693641e-16
1.7203104496002197,0.0013522400078663838,0.001164331107324182,-1.7992771422595532e-16,-1.7990636370172902e-16
1.7213478088378906,0.0013522400078686075,0.0011643311073390884,-1.7996132449330237e-16,-1.799672958638227e-16
1.7258520126342773,0.0013522400078708312,0.0011643311073539946,-1.7991036699119554e-16,-1.799729337151196e-16
1.7321064472198486,0.0013522400078730549,0.0011643311073689009,-1.7994788038636354e-16,-1.7993281823473766e-16
1.733022928237915,0.0013522400078752786,0.0011643311073838071,-1.7996089081243336e-16,-1.7993455295821364e-16
1.7359600067138672,0.0013522400078775022,0.0011643311073987134,-1.7994896458853603e-16,-1.7994886442689046e-16
1.7378809452056885,0.001352240007879726,0.0011643311074136195,-1.799283647472588e-16,-1.7995840540600833e-16
1.7456371784210205,0.0013522400078819496,0.0011643311074285255,-1.7993313523681774e-16,-1.7992479513866128e-16
1.7481510639190674,0.0013522400078841733,0.0011643311074434315,-1.79950265631143e-16,-1.7991937412779886e-16
1.7510738372802734,0.001352240007886397,0.0011643311074583376,-1.799281479068243e-16,-1.7993715504342762e-16
1.764758825302124,0.0013522400078886205,0.0011643311074732436,-1.7990668070380908e-16,-1.7997445159816113e-16
1.7656223773956299,0.0013522400078908442,0.0011643311074881497,-1.799879958667455e-16,-1.7992240989388182e-16
1.765984296798706,0.0013522400078930677,0.0011643311075030557,-1.799277142259553e-16,-1.7993346875604118e-16
1.7675559520721436,0.0013522400078952912,0.0011643311075179616,-1.799340025985557e-16,-1.7992371093648882e-16
1.7698400020599365,0.0013522400078975147,0.0011643311075328674,-1.7993053315160377e-16,-1.7996881374686421e-16
1.7787752151489258,0.0013522400078997382,0.0011643311075477732,-1.7994657934375654e-16,-1.7995168335253895e-16
1.7853152751922607,0.0013522400079019616,0.001164331107562679,-1.799504824715775e-16,-1.799117847125915e-16
1.7912061214447021,0.0013522400079041851,0.0011643311075775849,-1.7991622168292695e-16,-1.7991590468084694e-16
1.7940425872802734,0.0013522400079064086,0.0011643311075924907,-1.799567708441779e-16,-1.7994496129906955e-16
1.7967538833618164,0.001352240007908632,0.0011643311076073963,-1.799567708441779e-16,-1.799198078086679e-16
1.7975316047668457,0.0013522400079108556,0.001164331107622302,-1.7993313523681772e-16,-1.7993954028820713e-16
1.8103349208831787,0.001352240007913079,0.0011643311076372075,-1.7993118367290724e-16,-1.799341192773447e-16
1.8106391429901123,0.0013522400079153025,0.0011643311076521131,-1.7993877308811463e-16,-1.7993086667082726e-16
1.819725513458252,0.001352240007917526,0.0011643311076670187,-1.79985610621966e-16,-1.799334687560412e-16
1.8256709575653076,0.0013522400079197495,0.0011643311076819244,-1.7995525296113642e-16,-1.7993498663908268e-16
1.8259353637695312,0.001352240007921973,0.0011643311076968298,-1.7994419409897706e-16,-1.7993607084125516e-16
1.8261265754699707,0.0013522400079241965,0.0011643311077117352,-1.7987892512819342e-16,-1.7994300973515908e-16
1.8263053894042969,0.0013522400079264197,0.0011643311077266405,-1.7994722986506002e-16,-1.7992457829822682e-16
1.8315777778625488,0.0013522400079286432,0.001164331107741546,-1.79910150150761e-16,-1.7996165801252583e-16
1.8636677265167236,0.0013522400079308665,0.0011643311077564513,-1.7991795640640289e-16,-1.7995146651210446e-16
1.8655340671539307,0.0013522400079330897,0.0011643311077713567,-1.7992012481074786e-16,-1.7991482047867446e-16
1.8659701347351074,0.001352240007935313,0.001164331107786262,-1.7994896458853598e-16,-1.7992999930908926e-16
1.8662073612213135,0.0013522400079375363,0.001164331107801167,-1.7990516282076756e-16,-1.799278309047443e-16
1.8663785457611084,0.0013522400079397595,0.0011643311078160723,-1.7995134983331544e-16,-1.7991503731910897e-16
1.8665757179260254,0.0013522400079419828,0.0011643311078309774,-1.79907981746416e-16,-1.799577548847049e-16
1.8667652606964111,0.001352240007944206,0.0011643311078458826,-1.7992077533205133e-16,-1.7994994862906302e-16
1.8684964179992676,0.0013522400079464293,0.0011643311078607876,-1.7991210171467146e-16,-1.799443107777661e-16
1.86873197555542,0.0013522400079486526,0.0011643311078756925,-1.7992229321509283e-16,-1.7993520347951722e-16
1.868941068649292,0.0013522400079508758,0.0011643311078905975,-1.7994180885419757e-16,-1.7992024148953693e-16
1.8727307319641113,0.0013522400079530991,0.0011643311079055025,-1.7992185953422384e-16,-1.7993390243691024e-16
1.883258581161499,0.0013522400079553224,0.0011643311079204074,-1.7993270155594869e-16,-1.799445276182006e-16
1.8835458755493164,0.0013522400079575456,0.0011643311079353122,-1.7992988263030022e-16,-1.7997119899164375e-16
1.886687994003296,0.001352240007959769,0.001164331107950217,-1.799229437363963e-16,-1.7997943892815464e-16
1.8869349956512451,0.0013522400079619922,0.0011643311079651217,-1.7997086547242016e-16,-1.799213256917094e-16
1.8875911235809326,0.0013522400079642154,0.0011643311079800264,-1.79945061460715e-16,-1.7993585400082072e-16
1.8893649578094482,0.0013522400079664387,0.0011643311079949311,-1.7994722986505997e-16,-1.799519001929735e-16
1.8900563716888428,0.0013522400079686618,0.0011643311080098359,-1.7991383643814742e-16,-1.7993368559647575e-16
1.8914587497711182,0.0013522400079708848,0.0011643311080247406,-1.7988716506470426e-16,-1.79952984395146e-16
1.897636890411377,0.0013522400079731078,0.0011643311080396452,-1.7993942360941806e-16,-1.799766200025062e-16
1.8988258838653564,0.001352240007975331,0.0011643311080545497,-1.799207753320513e-16,-1.7993758872429673e-16
1.903245449066162,0.001352240007977554,0.0011643311080694542,-1.799274973855207e-16,-1.7989834060565275e-16
1.9087634086608887,0.001352240007979777,0.0011643311080843587,-1.7991557116162338e-16,-1.7996382641687087e-16
1.9090075492858887,0.001352240007982,0.0011643311080992633,-1.7997151599372364e-16,-1.799319508729998e-16
1.9136803150177002,0.001352240007984223,0.0011643311081141676,-1.7993378575812115e-16,-1.7994084133081418e-16
1.9179539680480957,0.0013522400079864461,0.0011643311081290719,-1.7991969112987882e-16,-1.7993390243691027e-16
1.9182331562042236,0.0013522400079886692,0.0011643311081439762,-1.7995568664200535e-16,-1.7993043298995832e-16
1.9229304790496826,0.0013522400079908922,0.0011643311081588805,-1.7990906594858847e-16,-1.7994821390558708e-16
1.9281136989593506,0.0013522400079931153,0.0011643311081737848,-1.7996999811068214e-16,-1.799089657869431e-16
1.9327914714813232,0.0013522400079953383,0.0011643311081886891,-1.7994636250332195e-16,-1.799553696399255e-16
1.9331130981445312,0.0013522400079975614,0.0011643311082035934,-1.79943326737239e-16,-1.7995081599080106e-16
1.9332950115203857,0.0013522400079997844,0.0011643311082184975,-1.7994050781159052e-16,-1.7997206635338177e-16
1.9336273670196533,0.0013522400080020075,0.0011643311082334016,-1.7993270155594864e-16,-1.799397571286417e-16
1.9338531494140625,0.0013522400080042305,0.0011643311082483057,-1.799209921724858e-16,-1.7994409393733164e-16
1.934044361114502,0.0013522400080064536,0.0011643311082632098,-1.7997433491937208e-16,-1.799089657869431e-16
1.9342608451843262,0.0013522400080086764,0.001164331108278114,-1.7993183419421064e-16,-1.799456118203731e-16
1.9356303215026855,0.0013522400080108992,0.001164331108293018,-1.7994831406723243e-16,-1.7993346875604126e-16
1.9358036518096924,0.0013522400080131223,0.0011643311083079219,-1.7994072465202504e-16,-1.7992110885127492e-16
1.936283826828003,0.0013522400080153451,0.0011643311083228258,-1.7993790572637657e-16,-1.799213256917094e-16
1.9374163150787354,0.001352240008017568,0.0011643311083377296,-1.7995958976982628e-16,-1.799386729264692e-16
1.9386677742004395,0.0013522400080197908,0.0011643311083526335,-1.7991817324683733e-16,-1.7995862224644292e-16
1.939500093460083,0.0013522400080220136,0.0011643311083675374,-1.7993205103464514e-16,-1.7995688752296693e-16
1.9415526390075684,0.0013522400080242364,0.001164331108382441,-1.798821777347108e-16,-1.7997727052380967e-16
1.9417707920074463,0.0013522400080264593,0.0011643311083973447,-1.799344362794246e-16,-1.7992544565996486e-16
1.9435768127441406,0.001352240008028682,0.0011643311084122484,-1.799496151098394e-16,-1.7994257605429012e-16
1.9441778659820557,0.001352240008030905,0.001164331108427152,-1.7992185953422377e-16,-1.799599232890499e-16
1.9448082447052002,0.0013522400080331278,0.0011643311084420557,-1.7994137517332851e-16,-1.7991178471259154e-16
1.9547741413116455,0.0013522400080353506,0.0011643311084569591,-1.7992185953422377e-16,-1.7994322657559362e-16
1.9559991359710693,0.0013522400080375734,0.0011643311084718626,-1.7993053315160364e-16,-1.7994214237342113e-16
1.9596219062805176,0.0013522400080397963,0.001164331108486766,-1.7990147653338103e-16,-1.7996751270425729e-16
1.9646334648132324,0.001352240008042019,0.0011643311085016695,-1.7995026563114288e-16,-1.7990853210607407e-16
1.9648995399475098,0.001352240008044242,0.001164331108516573,-1.7996110765286773e-16,-1.7988034284958944e-16
1.9792323112487793,0.0013522400080464647,0.0011643311085314763,-1.7990906594858842e-16,-1.7992306041518537e-16
1.9795184135437012,0.0013522400080486874,0.0011643311085463796,-1.799639265785162e-16,-1.7990332793564613e-16
1.997589349746704,0.00135224000805091,0.0011643311085612828,-1.7996045713156425e-16,-1.7989422063739725e-16
1.998396396636963,0.0013522400080531326,0.001164331108576186,-1.7991296907640937e-16,-1.799341192773447e-16
2.000152111053467,0.0013522400080575778,0.0011643311086059925,-1.7998084013240696e-16,-1.798909680308798e-16
2.000509738922119,0.0013522400080598004,0.0011643311086208957,-1.7990256073555351e-16,-1.7995276755471146e-16
2.0034427642822266,0.001352240008062023,0.0011643311086357987,-1.7992532898117571e-16,-1.7996165801252586e-16
2.003957748413086,0.0013522400080642457,0.0011643311086507017,-1.7993074999203814e-16,-1.7992457829822684e-16
2.0042052268981934,0.0013522400080664683,0.0011643311086656047,-1.7995807188678477e-16,-1.7993151719213076e-16
2.007770538330078,0.001352240008068691,0.0011643311086805077,-1.799248953003067e-16,-1.7993823924560016e-16
2.00827693939209,0.0013522400080709135,0.0011643311086954107,-1.7992966578986565e-16,-1.7993173403256525e-16
2.008530616760254,0.0013522400080731361,0.0011643311087103138,-1.7992879842812766e-16,-1.7994864758645602e-16
2.00872540473938,0.0013522400080753587,0.0011643311087252166,-1.7996089081243323e-16,-1.7994344341602809e-16
2.0089354515075684,0.0013522400080775814,0.0011643311087401193,-1.7993183419421062e-16,-1.7991633836171595e-16
2.009145975112915,0.001352240008079804,0.0011643311087550221,-1.7993508680072807e-16,-1.7990029216956317e-16
2.0093743801116943,0.0013522400080820266,0.001164331108769925,-1.7992316057683074e-16,-1.7991677204258496e-16
2.009613513946533,0.0013522400080842492,0.0011643311087848277,-1.7994657934375642e-16,-1.7993368559647573e-16
2.0098013877868652,0.0013522400080864718,0.0011643311087997303,-1.7992034165118227e-16,-1.799577548847049e-16
2.0099759101867676,0.0013522400080886944,0.0011643311088146329,-1.799405078115905e-16,-1.799193741277989e-16
2.010209560394287,0.001352240008090917,0.0011643311088295354,-1.7992728054508617e-16,-1.799130857551985e-16
2.010498523712158,0.0013522400080931394,0.001164331108844438,-1.799463625033219e-16,-1.7994431077776608e-16
2.0227041244506836,0.0013522400080953618,0.0011643311088593406,-1.7994527830114942e-16,-1.7991460363824e-16
2.023017644882202,0.0013522400080975844,0.0011643311088742432,-1.7992879842812763e-16,-1.7994778022471805e-16
2.0232388973236084,0.0013522400080998068,0.0011643311088891455,-1.7992988263030012e-16,-1.7998963042857599e-16
2.02359938621521,0.0013522400081020292,0.001164331108904048,-1.7992597950247916e-16,-1.7991048366998454e-16
2.023819923400879,0.0013522400081042516,0.0011643311089189503,-1.7992034165118225e-16,-1.799299993090893e-16
2.024862766265869,0.001352240008106474,0.0011643311089338526,-1.7995872240808824e-16,-1.7994864758645604e-16
2.0250885486602783,0.0013522400081086964,0.001164331108948755,-1.7992728054508617e-16,-1.799443107777661e-16
2.0252978801727295,0.0013522400081109188,0.0011643311089636573,-1.7995655400374327e-16,-1.7991070051041906e-16
2.0259416103363037,0.0013522400081131412,0.0011643311089785595,-1.7998149065371044e-16,-1.7992783090474432e-16
2.0298218727111816,0.0013522400081153636,0.0011643311089934616,-1.799088491081539e-16,-1.7991004998911556e-16
2.0308613777160645,0.001352240008117586,0.0011643311090083638,-1.799480972267979e-16,-1.7993845608603467e-16
2.031226634979248,0.0013522400081198084,0.001164331109023266,-1.7993768888594203e-16,-1.7992956562822028e-16
2.0320355892181396,0.0013522400081220308,0.001164331109038168,-1.7996479394025416e-16,-1.7995363491644946e-16
2.0487382411956787,0.0013522400081242532,0.0011643311090530702,-1.79902777575988e-16,-1.7993737188386216e-16
2.0497453212738037,0.0013522400081264754,0.0011643311090679723,-1.7992359425769973e-16,-1.799798726090236e-16
2.049943447113037,0.0013522400081286978,0.0011643311090828742,-1.7992814790682416e-16,-1.799341192773447e-16
2.0535695552825928,0.00135224000813092,0.0011643311090977762,-1.7993378575812107e-16,-1.7992479513866133e-16
2.053814649581909,0.0013522400081331422,0.001164331109112678,-1.7989930812903604e-16,-1.7996404325730532e-16
2.0547268390655518,0.0013522400081353643,0.00116433110912758,-1.799253289811757e-16,-1.7997141583207822e-16
2.0566394329071045,0.0013522400081375865,0.001164331109142482,-1.799463625033219e-16,-1.799414918521176e-16
2.056885004043579,0.0013522400081398087,0.0011643311091573837,-1.799457119820184e-16,-1.7995515279949092e-16
2.0572855472564697,0.0013522400081420309,0.0011643311091722854,-1.7996739602546812e-16,-1.7992999930908926e-16
2.0582666397094727,0.001352240008144253,0.001164331109187187,-1.7994983195027385e-16,-1.7995450227818745e-16
2.059687852859497,0.0013522400081464752,0.0011643311092020888,-1.799539519185293e-16,-1.7992934878778579e-16
2.060270071029663,0.0013522400081486974,0.0011643311092169905,-1.7992966578986563e-16,-1.7992414461735786e-16
2.0618748664855957,0.0013522400081509196,0.0011643311092318922,-1.7992164269378923e-16,-1.799445276182006e-16
2.068770408630371,0.0013522400081531418,0.001164331109246794,-1.7994180885419745e-16,-1.79914169957371e-16
2.0690321922302246,0.001352240008155364,0.0011643311092616954,-1.7990949962945738e-16,-1.7993975712864167e-16
2.0717380046844482,0.0013522400081575861,0.0011643311092765969,-1.7992489530030668e-16,-1.7993325191560677e-16
2.071960210800171,0.0013522400081598083,0.0011643311092914984,-1.7990668070380893e-16,-1.7995797172513944e-16
2.0721724033355713,0.0013522400081620305,0.0011643311093063999,-1.7992185953422374e-16,-1.7991373627650204e-16
2.073504686355591,0.0013522400081642527,0.0011643311093213014,-1.7994636250332193e-16,-1.7994409393733164e-16
2.073774576187134,0.0013522400081664749,0.0011643311093362026,-1.7988586402209724e-16,-1.7993845608603472e-16
2.0761852264404297,0.0013522400081686968,0.001164331109351104,-1.799331352368176e-16,-1.7993043298995832e-16
2.076704740524292,0.0013522400081709188,0.0011643311093660052,-1.7993161735377613e-16,-1.799250119790959e-16
2.0775210857391357,0.001352240008173141,0.0011643311093809065,-1.7995048247157737e-16,-1.7992718038344087e-16
2.087470054626465,0.001352240008175363,0.0011643311093958077,-1.7994224253506648e-16,-1.7992826458561335e-16
2.0877702236175537,0.001352240008177585,0.001164331109410709,-1.7987784092602084e-16,-1.7997922208772017e-16
2.0880355834960938,0.0013522400081798069,0.00116433110942561,-1.7992879842812766e-16,-1.7991807308519198e-16
2.088245391845703,0.0013522400081820288,0.0011643311094405111,-1.7993812256681104e-16,-1.7991351943606755e-16
2.0888495445251465,0.0013522400081842508,0.0011643311094554122,-1.7994245937550097e-16,-1.7993086667082733e-16
2.0890865325927734,0.0013522400081864728,0.0011643311094703132,-1.7993595416246607e-16,-1.7992284357475093e-16
2.089337110519409,0.0013522400081886947,0.0011643311094852143,-1.7993790572637654e-16,-1.7995190019297354e-16
2.0911993980407715,0.0013522400081909167,0.0011643311095001151,-1.7992251005552724e-16,-1.7997683684294071e-16
2.091566324234009,0.0013522400081931387,0.001164331109515016,-1.7993096683247263e-16,-1.799395402882072e-16
2.092010736465454,0.0013522400081953606,0.0011643311095299168,-1.7994267621593547e-16,-1.799623085338294e-16
2.0940418243408203,0.0013522400081975826,0.0011643311095448177,-1.799168722042303e-16,-1.799486475864561e-16
2.0949888229370117,0.0013522400081998045,0.0011643311095597185,-1.7991340275727836e-16,-1.7995276755471154e-16
2.1027233600616455,0.0013522400082020265,0.0011643311095746193,-1.7995286771635683e-16,-1.7992522881953042e-16
2.103851556777954,0.0013522400082042485,0.00116433110958952,-1.7993552048159706e-16,-1.7993563716038628e-16
2.104390859603882,0.0013522400082064704,0.0011643311096044206,-1.7991904060857527e-16,-1.7991937412779898e-16
2.109694004058838,0.0013522400082086924,0.0011643311096193212,-1.7993053315160362e-16,-1.799263130217029e-16
2.110060453414917,0.0013522400082109144,0.0011643311096342218,-1.799240279385687e-16,-1.7995016546949758e-16
2.11368989944458,0.0013522400082131361,0.0011643311096491225,-1.7989627236295307e-16,-1.7995385175688405e-16
2.11722469329834,0.001352240008215358,0.001164331109664023,-1.7996392657851617e-16,-1.7992284357475095e-16
2.1197445392608643,0.0013522400082175798,0.0011643311096789237,-1.799454951415839e-16,-1.7993238455386882e-16
2.1229143142700195,0.0013522400082198016,0.0011643311096938241,-1.7992316057683072e-16,-1.799579717251395e-16
2.1231775283813477,0.0013522400082220233,0.0011643311097087245,-1.7993378575812107e-16,-1.7990115953130126e-16
2.123361825942993,0.001352240008224245,0.001164331109723625,-1.799480972267979e-16,-1.7991720572345404e-16
2.123769760131836,0.0013522400082264668,0.0011643311097385253,-1.7997043179155108e-16,-1.7995233387384258e-16
2.1240427494049072,0.0013522400082286886,0.0011643311097534258,-1.7995893924852273e-16,-1.7992869826648239e-16
2.1275475025177,0.0013522400082309103,0.001164331109768326,-1.7991470379988533e-16,-1.7995146651210459e-16
2.130840301513672,0.001352240008233132,0.0011643311097832261,-1.79938989928549e-16,-1.799120015530261e-16
2.1348257064819336,0.0013522400082353538,0.0011643311097981263,-1.7995720452504675e-16,-1.7993910660733825e-16
2.135679244995117,0.0013522400082375755,0.0011643311098130265,-1.7988803242644218e-16,-1.7995515279949102e-16
2.1436679363250732,0.0013522400082397973,0.0011643311098279267,-1.799179564064028e-16,-1.7996772954469185e-16
2.144016742706299,0.001352240008242019,0.001164331109842827,-1.7996717918503363e-16,-1.7992501197909592e-16
2.144348382949829,0.0013522400082442408,0.0011643311098577269,-1.7995980661026073e-16,-1.798959553608733e-16
2.146947145462036,0.0013522400082464625,0.0011643311098726268,-1.7995048247157735e-16,-1.7993954028820723e-16
2.1485297679901123,0.0013522400082486843,0.0011643311098875268,-1.799472298650599e-16,-1.799495149481941e-16
2.1541061401367188,0.0013522400082509058,0.0011643311099024268,-1.7987350411733087e-16,-1.799501654694976e-16
2.157681465148926,0.0013522400082531276,0.0011643311099173268,-1.7990277757598798e-16,-1.7994257605429022e-16
2.158093214035034,0.001352240008255349,0.0011643311099322265,-1.799238110981342e-16,-1.7996447693817442e-16
2.1596744060516357,0.0013522400082575706,0.0011643311099471263,-1.799528677163568e-16,-1.7993303507517235e-16
2.1600916385650635,0.0013522400082597922,0.001164331109962026,-1.7996436025938516e-16,-1.7993498663908283e-16
2.1629810333251953,0.0013522400082620137,0.0011643311099769258,-1.7991665536379579e-16,-1.7992262673431649e-16
2.165109634399414,0.0013522400082642352,0.0011643311099918255,-1.799311836729071e-16,-1.7997575264076828e-16
2.1737959384918213,0.0013522400082664567,0.0011643311100067253,-1.7992576266204467e-16,-1.7992674670257193e-16
2.174252986907959,0.0013522400082686783,0.0011643311100216248,-1.7996999811068207e-16,-1.7990159321217027e-16
2.1744959354400635,0.0013522400082708998,0.0011643311100365244,-1.7992663002378264e-16,-1.7993368559647585e-16
2.1747121810913086,0.0013522400082731213,0.001164331110051424,-1.799509161524463e-16,-1.7992826458561343e-16
2.174906015396118,0.0013522400082753429,0.0011643311100663235,-1.799357373220315e-16,-1.7992804774517893e-16
2.175117254257202,0.0013522400082775644,0.001164331110081223,-1.7993009947073459e-16,-1.7993867292646929e-16
2.1758899688720703,0.001352240008279786,0.0011643311100961225,-1.7992359425769968e-16,-1.7996230853382948e-16
2.1765449047088623,0.0013522400082820075,0.0011643311101110219,-1.799287984281276e-16,-1.7996577798078143e-16
2.1796016693115234,0.001352240008284229,0.0011643311101259212,-1.7992532898117566e-16,-1.7992718038344094e-16
2.184401035308838,0.0013522400082864505,0.0011643311101408205,-1.7993595416246602e-16,-1.7996556114034693e-16
2.1859114170074463,0.001352240008288672,0.0011643311101557198,-1.7991166803380235e-16,-1.7995667068253254e-16
2.1882951259613037,0.0013522400082908936,0.0011643311101706192,-1.7996999811068207e-16,-1.7993368559647585e-16
2.191248655319214,0.001352240008293115,0.0011643311101855183,-1.799164385233613e-16,-1.7992913194735142e-16
2.204056739807129,0.0013522400082953364,0.0011643311102004174,-1.7992663002378266e-16,-1.799440939373317e-16
2.20463228225708,0.0013522400082975577,0.0011643311102153165,-1.7995980661026073e-16,-1.799447444586352e-16
2.204907178878784,0.001352240008299779,0.0011643311102302156,-1.7991275223597486e-16,-1.799692474277334e-16
2.2051968574523926,0.0013522400083020004,0.0011643311102451147,-1.799320510346451e-16,-1.7995710436340155e-16
2.205538034439087,0.0013522400083042217,0.0011643311102600138,-1.7992381109813422e-16,-1.7995862224644302e-16
2.2121903896331787,0.001352240008306443,0.001164331110274913,-1.7996457709981967e-16,-1.7994170869255225e-16
2.212926149368286,0.0013522400083086643,0.0011643311102898118,-1.7993617100290056e-16,-1.799525507142771e-16
2.213134288787842,0.0013522400083108856,0.0011643311103047107,-1.799413751733285e-16,-1.7993368559647585e-16
2.2141993045806885,0.001352240008313107,0.0011643311103196096,-1.7992120901292027e-16,-1.7995797172513952e-16
2.214745044708252,0.0013522400083153282,0.0011643311103345085,-1.7991578800205784e-16,-1.7992631302170295e-16
2.2151029109954834,0.0013522400083175496,0.0011643311103494073,-1.7989865760773258e-16,-1.799299993090894e-16
2.2170069217681885,0.0013522400083197709,0.001164331110364306,-1.7993248471551412e-16,-1.7995103283123563e-16
2.217313289642334,0.0013522400083219922,0.0011643311103792047,-1.7992597950247921e-16,-1.799302161495239e-16
2.2206501960754395,0.0013522400083242135,0.0011643311103941034,-1.7993768888594205e-16,-1.799456118203732e-16
2.231523275375366,0.0013522400083264348,0.001164331110409002,-1.7991361959771288e-16,-1.7995623700166356e-16
2.2319297790527344,0.0013522400083286561,0.0011643311104239007,-1.7994224253506648e-16,-1.7992436145779247e-16
2.2322030067443848,0.0013522400083308774,0.0011643311104387994,-1.799697812702476e-16,-1.7993433611777935e-16
2.2325868606567383,0.0013522400083330987,0.0011643311104536978,-1.7992858158769314e-16,-1.7995667068253254e-16
2.240793466567993,0.00135224000833532,0.0011643311104685963,-1.799478803863634e-16,-1.7994105817124875e-16
2.2477245330810547,0.0013522400083375412,0.0011643311104834948,-1.7990191021425001e-16,-1.7991070051041916e-16
2.24804425239563,0.0013522400083397623,0.0011643311104983932,-1.7991340275727836e-16,-1.7994778022471817e-16
2.248318672180176,0.0013522400083419833,0.0011643311105132917,-1.799314005133416e-16,-1.7994149185211776e-16
2.248567581176758,0.0013522400083442044,0.0011643311105281901,-1.7991990797031327e-16,-1.7991330259563313e-16
2.260087490081787,0.0013522400083464255,0.0011643311105430886,-1.799546024398328e-16,-1.7988901646696947e-16
2.260448455810547,0.0013522400083486466,0.0011643311105579868,-1.7991470379988533e-16,-1.7994257605429024e-16
2.260648012161255,0.0013522400083508677,0.001164331110572885,-1.7990798174641594e-16,-1.799146036382401e-16
2.260826587677002,0.0013522400083530888,0.0011643311105877833,-1.7992793106638967e-16,-1.7994366025646273e-16
2.261003255844116,0.00135224000835531,0.0011643311106026815,-1.7992359425769973e-16,-1.7993151719213088e-16
2.2612106800079346,0.001352240008357531,0.0011643311106175798,-1.7994961510983938e-16,-1.7992652986213744e-16
2.26489520072937,0.0013522400083597521,0.0011643311106324778,-1.799639265785162e-16,-1.798992079673908e-16
2.265170097351074,0.0013522400083619732,0.0011643311106473758,-1.7992597950247921e-16,-1.7993823924560028e-16
2.265397310256958,0.0013522400083641943,0.0011643311106622738,-1.7995460243983282e-16,-1.7992479513866146e-16
2.265587329864502,0.0013522400083664154,0.0011643311106771719,-1.7992771422595517e-16,-1.7990267741434276e-16
2.265756607055664,0.0013522400083686365,0.0011643311106920699,-1.7993855624768002e-16,-1.7994105817124875e-16
2.2659237384796143,0.0013522400083708576,0.001164331110706968,-1.799340025985556e-16,-1.7995298439514608e-16
2.2661232948303223,0.0013522400083730787,0.0011643311107218657,-1.7993920676898352e-16,-1.7994257605429022e-16
2.2696309089660645,0.0013522400083752998,0.0011643311107367635,-1.7992749738552068e-16,-1.7993758872429678e-16
2.2699668407440186,0.0013522400083775207,0.0011643311107516613,-1.7994419409897696e-16,-1.7993043298995837e-16
2.2708797454833984,0.0013522400083797416,0.0011643311107665591,-1.7994441093941145e-16,-1.7993997396907624e-16
2.2711663246154785,0.0013522400083819624,0.001164331110781457,-1.7992164269378925e-16,-1.799425760542902e-16
2.271472692489624,0.0013522400083841833,0.0011643311107963547,-1.7992879842812766e-16,-1.7994496129906965e-16
2.272034168243408,0.0013522400083864042,0.0011643311108112523,-1.799320510346451e-16,-1.7992002464910248e-16
2.2728700637817383,0.001352240008388625,0.00116433111082615,-1.799179564064028e-16,-1.7994214237342118e-16
2.2866251468658447,0.001352240008390846,0.0011643311108410475,-1.7991947428944426e-16,-1.7994973178862858e-16
2.2869057655334473,0.0013522400083930668,0.001164331110855945,-1.7993400259855556e-16,-1.7993151719213083e-16
2.287106513977051,0.0013522400083952877,0.0011643311108708427,-1.799147037998853e-16,-1.7998073997076167e-16
2.2873177528381348,0.0013522400083975086,0.00116433111088574,-1.7990191021425e-16,-1.7993064983039284e-16
2.3046252727508545,0.0013522400083997295,0.0011643311109006374,-1.7993465311985904e-16,-1.7993563716038628e-16
2.3079066276550293,0.0013522400084019504,0.0011643311109155348,-1.7993530364116254e-16,-1.7994712970341462e-16
2.3083999156951904,0.0013522400084041712,0.0011643311109304322,-1.7996544446155764e-16,-1.7993238455386882e-16
2.3088467121124268,0.0013522400084063921,0.0011643311109453295,-1.7992142585335473e-16,-1.7996209169339491e-16
2.3090994358062744,0.001352240008408613,0.001164331110960227,-1.799179564064028e-16,-1.799638264168709e-16
2.3094213008880615,0.0013522400084108339,0.0011643311109751243,-1.7994224253506646e-16,-1.799037616165152e-16
2.309683322906494,0.0013522400084130548,0.0011643311109900214,-1.7992164269378923e-16,-1.7994344341602816e-16
2.3099138736724854,0.0013522400084152754,0.0011643311110049186,-1.7993465311985904e-16,-1.799486475864561e-16
2.330737829208374,0.001352240008426379,0.001164331111079404,-1.799437604181079e-16,-1.7991937412779896e-16
2.331019639968872,0.0013522400084285996,0.0011643311110943009,-1.7991990797031322e-16,-1.7988923330740386e-16
2.3312413692474365,0.0013522400084308203,0.0011643311111091978,-1.7994722986505985e-16,-1.7995124967167002e-16
2.3367791175842285,0.0013522400084352616,0.0011643311111389917,-1.7995221719505328e-16,-1.7994192553298664e-16
2.3370935916900635,0.0013522400084374823,0.0011643311111538884,-1.7994679618419086e-16,-1.7994994862906304e-16
2.3373935222625732,0.001352240008439703,0.0011643311111687851,-1.7994094149245943e-16,-1.7992978246865482e-16
2.337578296661377,0.0013522400084419236,0.0011643311111836818,-1.7990299441642245e-16,-1.799326013943033e-16
2.3377459049224854,0.0013522400084441443,0.0011643311111985786,-1.7994983195027382e-16,-1.7993563716038625e-16
2.3379151821136475,0.001352240008446365,0.0011643311112134753,-1.7993248471551405e-16,-1.7992956562822033e-16
2.3380792140960693,0.0013522400084485856,0.0011643311112283718,-1.7993400259855552e-16,-1.79917639404323e-16
2.3382508754730225,0.0013522400084508062,0.0011643311112432683,-1.7991513748075427e-16,-1.7995320123558052e-16
2.3463058471679688,0.001352240008453027,0.0011643311112581648,-1.799123185551058e-16,-1.7991655520215051e-16
2.348932981491089,0.0013522400084552476,0.0011643311112730613,-1.7992251005552717e-16,-1.7993932344777271e-16
2.3493175506591797,0.0013522400084574682,0.0011643311112879578,-1.7992641318334812e-16,-1.7995927276774644e-16
2.3496828079223633,0.0013522400084596887,0.0011643311113028543,-1.7992641318334812e-16,-1.799623085338294e-16
2.350107192993164,0.0013522400084619093,0.0011643311113177506,-1.7994853090766682e-16,-1.7993195087299981e-16
2.350461006164551,0.0013522400084641298,0.0011643311113326469,-1.7998626114326931e-16,-1.7990983314868112e-16
2.350750207901001,0.0013522400084663502,0.0011643311113475432,-1.7995178351418428e-16,-1.7994257605429017e-16
2.35107421875,0.0013522400084685707,0.0011643311113624395,-1.7994831406723233e-16,-1.799566706825325e-16
2.351515769958496,0.0013522400084707911,0.0011643311113773357,-1.7995178351418428e-16,-1.7992891510691685e-16
2.351963520050049,0.0013522400084730116,0.001164331111392232,-1.799274973855206e-16,-1.799258793408339e-16
2.352336883544922,0.001352240008475232,0.0011643311114071283,-1.7992597950247914e-16,-1.7990983314868112e-16
2.358027219772339,0.0013522400084774525,0.0011643311114220244,-1.7991643852336127e-16,-1.7997445159816125e-16
2.367288827896118,0.001352240008479673,0.0011643311114369205,-1.799066807038089e-16,-1.799720663533818e-16
2.3676695823669434,0.0013522400084818934,0.0011643311114518165,-1.799229437363962e-16,-1.7993888976690373e-16
2.367946147918701,0.0013522400084841138,0.0011643311114667126,-1.799164385233613e-16,-1.7993064983039284e-16
2.3682291507720947,0.0013522400084863342,0.0011643311114816087,-1.799153543211888e-16,-1.799646937786089e-16
2.3685386180877686,0.0013522400084885547,0.0011643311114965045,-1.799454951415839e-16,-1.7991373627650207e-16
2.3688113689422607,0.0013522400084907751,0.0011643311115114004,-1.7995503612070178e-16,-1.799486475864561e-16
2.37477970123291,0.0013522400084929956,0.0011643311115262962,-1.79938989928549e-16,-1.7994257605429017e-16
2.3751707077026367,0.001352240008495216,0.001164331111541192,-1.7993443627942457e-16,-1.7991633836171602e-16
2.37553334236145,0.0013522400084974365,0.001164331111556088,-1.799177395659683e-16,-1.7992934878778584e-16
2.3816850185394287,0.0013522400084996567,0.0011643311115709838,-1.7995243403548783e-16,-1.7994105817124867e-16
2.382025957107544,0.001352240008501877,0.0011643311115858794,-1.7993465311985906e-16,-1.7993563716038625e-16
2.3847098350524902,0.0013522400085040972,0.001164331111600775,-1.799099333103264e-16,-1.7994344341602814e-16
2.3849360942840576,0.0013522400085063174,0.0011643311116156707,-1.799025607355535e-16,-1.7995493595905648e-16
2.385185718536377,0.0013522400085085376,0.0011643311116305663,-1.7994180885419747e-16,-1.798855470200174e-16
2.38857364654541,0.0013522400085107578,0.001164331111645462,-1.7993855624768002e-16,-1.7992718038344084e-16
2.3887951374053955,0.001352240008512978,0.0011643311116603574,-1.7996370973808168e-16,-1.799297824686548e-16
2.38897967338562,0.0013522400085151983,0.0011643311116752528,-1.7992185953422374e-16,-1.7994799706515254e-16
2.390883207321167,0.0013522400085174185,0.0011643311116901482,-1.7995546980157079e-16,-1.7995298439514598e-16
2.393125057220459,0.0013522400085196388,0.0011643311117050437,-1.7994831406723238e-16,-1.7995515279949095e-16
2.399930000305176,0.001352240008521859,0.001164331111719939,-1.7992771422595515e-16,-1.799588390868774e-16
2.4002625942230225,0.0013522400085240792,0.0011643311117348345,-1.798878155860077e-16,-1.7996447693817433e-16
2.400514841079712,0.0013522400085262995,0.0011643311117497297,-1.7991470379988533e-16,-1.7994019080951066e-16
2.4007186889648438,0.0013522400085285197,0.001164331111764625,-1.7994310989680445e-16,-1.7992197621301291e-16
2.4009318351745605,0.00135224000853074,0.00116433111177952,-1.799168722042303e-16,-1.7992024148953693e-16
2.4011693000793457,0.0013522400085329601,0.0011643311117944153,-1.7993530364116257e-16,-1.79952117033408e-16
2.4064419269561768,0.0013522400085351804,0.0011643311118093105,-1.7996826338720613e-16,-1.7989812376521823e-16
2.4116756916046143,0.0013522400085374006,0.0011643311118242057,-1.7991361959771288e-16,-1.7992804774517884e-16
2.4599809646606445,0.0013522400085396208,0.0011643311118391007,-1.8000165681411869e-16,-1.7990593002086014e-16
2.46032452583313,0.001352240008552941,0.0011643311119284704,-1.799509161524464e-16,-1.79952984395146e-16
2.460554599761963,0.001352240008555161,0.0011643311119433652,-1.7993898992854908e-16,-1.7992869826648234e-16
2.460737466812134,0.001352240008557381,0.00116433111195826,-1.7992684686421723e-16,-1.7994821390558708e-16
2.4609076976776123,0.001352240008559601,0.0011643311119731547,-1.799452783011495e-16,-1.7992956562822033e-16
2.4610745906829834,0.001352240008561821,0.0011643311119880495,-1.799810569728415e-16,-1.7990094269086672e-16
2.4613332748413086,0.001352240008564041,0.0011643311120029442,-1.7994701302462545e-16,-1.799250119790959e-16
2.4616498947143555,0.001352240008566261,0.0011643311120178388,-1.7991665536379586e-16,-1.799545022781875e-16
2.4619271755218506,0.001352240008568481,0.0011643311120327334,-1.7993833940724558e-16,-1.7992089201084045e-16
2.462195873260498,0.001352240008570701,0.001164331112047628,-1.799281479068242e-16,-1.7991091735085358e-16
2.4659314155578613,0.001352240008572921,0.0011643311120625225,-1.7992272689596178e-16,-1.799458286608076e-16
2.4684736728668213,0.001352240008575141,0.001164331112077417,-1.7994788038636345e-16,-1.7995688752296696e-16
2.4690239429473877,0.001352240008577361,0.0011643311120923113,-1.7995330139722587e-16,-1.7993585400082074e-16
2.471708059310913,0.001352240008579581,0.0011643311121072057,-1.7994874774810144e-16,-1.7995970644861543e-16
2.472266674041748,0.0013522400085818008,0.0011643311121221,-1.7994571198201848e-16,-1.7993802240516571e-16
2.4726102352142334,0.0013522400085840209,0.0011643311121369944,-1.7995958976982628e-16,-1.7995580332079447e-16
2.4729838371276855,0.0013522400085862407,0.0011643311121518887,-1.7996045713156428e-16,-1.7991503731910902e-16
2.4735724925994873,0.0013522400085884605,0.001164331112166783,-1.7992489530030675e-16,-1.7994170869255218e-16
2.4748833179473877,0.0013522400085906802,0.0011643311121816774,-1.7993812256681108e-16,-1.7992804774517886e-16
2.476499557495117,0.0013522400085929,0.0011643311121965715,-1.7988521350079379e-16,-1.7996469377860887e-16
2.48287296295166,0.0013522400085951198,0.0011643311122114656,-1.7994094149245953e-16,-1.7992024148953695e-16
2.483318328857422,0.0013522400085973396,0.0011643311122263597,-1.799431098968045e-16,-1.799308666708273e-16
2.4867568016052246,0.0013522400085995594,0.0011643311122412538,-1.7999775368629776e-16,-1.7989226907348682e-16
2.4925613403320312,0.0013522400086017792,0.001164331112256148,-1.799496151098394e-16,-1.799241446173579e-16
2.493227243423462,0.001352240008603999,0.001164331112271042,-1.7993009947073466e-16,-1.7994431077776613e-16
2.4938840866088867,0.0013522400086062188,0.001164331112285936,-1.799342194389901e-16,-1.7992110885127494e-16
2.4943814277648926,0.0013522400086084386,0.0011643311123008299,-1.7993855624768004e-16,-1.7994561182037313e-16
2.4975833892822266,0.0013522400086106584,0.0011643311123157238,-1.799491814289704e-16,-1.7991416995737105e-16
2.5107369422912598,0.0013522400086128782,0.0011643311123306177,-1.7993833940724555e-16,-1.7998485993901711e-16
2.5111441612243652,0.001352240008615098,0.0011643311123455116,-1.7993378575812112e-16,-1.7990311109521172e-16
2.5114941596984863,0.0013522400086173178,0.0011643311123604053,-1.7992576266204472e-16,-1.7993303507517232e-16
2.511781692504883,0.0013522400086195374,0.001164331112375299,-1.7991860692770631e-16,-1.799408413308142e-16
2.5257961750030518,0.0013522400086217572,0.0011643311123901926,-1.799634928976472e-16,-1.7993542031995178e-16
2.5280449390411377,0.0013522400086239767,0.0011643311124050863,-1.7988000933036583e-16,-1.799709821512093e-16
2.528385639190674,0.0013522400086261963,0.00116433111241998,-1.7993140051334164e-16,-1.7993238455386882e-16
2.5311601161956787,0.001352240008628416,0.0011643311124348737,-1.799491814289704e-16,-1.7991568784041255e-16
2.531489849090576,0.0013522400086306355,0.0011643311124497674,-1.7991296907640937e-16,-1.799352034795173e-16
2.5323143005371094,0.001352240008632855,0.0011643311124646609,-1.799101501507609e-16,-1.7994712970341462e-16
2.5423314571380615,0.0013522400086350746,0.0011643311124795543,-1.799110175124989e-16,-1.7991720572345402e-16
2.5426483154296875,0.0013522400086372942,0.0011643311124944478,-1.7989800708642908e-16,-1.7995038230993208e-16
2.5486936569213867,0.0013522400086395138,0.0011643311125093413,-1.799628423763437e-16,-1.7990874894650863e-16
2.54895281791687,0.0013522400086417334,0.0011643311125242347,-1.799255458216102e-16,-1.7992110885127497e-16
2.5507187843322754,0.001352240008643953,0.001164331112539128,-1.7993768888594205e-16,-1.799191572873645e-16
2.553278923034668,0.0013522400086461725,0.0011643311125540212,-1.799409414924595e-16,-1.7994344341602816e-16
2.5536670684814453,0.0013522400086483921,0.0011643311125689145,-1.7994072465202501e-16,-1.7993910660733822e-16
2.5870165824890137,0.0013522400086506117,0.0011643311125838077,-1.7992337741726524e-16,-1.7993585400082077e-16
2.588759660720825,0.0013522400086528313,0.001164331112598701,-1.7997888856849649e-16,-1.7992457829822691e-16
2.5890259742736816,0.0013522400086550508,0.0011643311126135942,-1.7991275223597488e-16,-1.7992132569170946e-16
2.589210033416748,0.0013522400086572704,0.0011643311126284873,-1.7992272689596176e-16,-1.7990484581868768e-16
2.5895614624023438,0.00135224000865949,0.0011643311126433803,-1.7993248471551412e-16,-1.7991959096823348e-16
2.589742660522461,0.0013522400086617096,0.0011643311126582733,-1.7994527830114944e-16,-1.7994431077776615e-16
2.589914560317993,0.0013522400086639292,0.0011643311126731664,-1.799405078115905e-16,-1.7996014012948444e-16
2.5900909900665283,0.0013522400086661485,0.0011643311126880594,-1.7992749738552068e-16,-1.7993021614952383e-16
2.5902583599090576,0.0013522400086683679,0.0011643311127029524,-1.7991708904466482e-16,-1.7996404325730537e-16
2.6087934970855713,0.0013522400086705872,0.0011643311127178453,-1.7993985729028702e-16,-1.799553696399255e-16
2.609064817428589,0.0013522400086728066,0.001164331112732738,-1.7996848022764063e-16,-1.7993021614952383e-16
2.609260082244873,0.001352240008675026,0.001164331112747631,-1.7992294373639623e-16,-1.7992869826648236e-16
2.6094963550567627,0.0013522400086772453,0.0011643311127625237,-1.7992012481074776e-16,-1.7995081599080106e-16
2.610619068145752,0.0013522400086794647,0.0011643311127774165,-1.7991969112987877e-16,-1.7995341807601501e-16
2.6108014583587646,0.001352240008681684,0.0011643311127923091,-1.7996132449330222e-16,-1.7990094269086672e-16
2.610975503921509,0.0013522400086839034,0.0011643311128072017,-1.7991361959771285e-16,-1.7996382641687087e-16
2.61114501953125,0.0013522400086861228,0.0011643311128220943,-1.7989735656512556e-16,-1.7995341807601501e-16
2.611314296722412,0.0013522400086883421,0.001164331112836987,-1.7992706370465165e-16,-1.799397571286417e-16
2.612454891204834,0.0013522400086905615,0.0011643311128518795,-1.7996240869547468e-16,-1.7989010066914185e-16
2.6127398014068604,0.0013522400086927809,0.0011643311128667721,-1.799463625033219e-16,-1.7989226907348682e-16
2.614657402038574,0.0013522400086950002,0.0011643311128816645,-1.7990299441642247e-16,-1.799620916933949e-16
2.6196258068084717,0.0013522400086972196,0.001164331112896557,-1.7994918142897035e-16,-1.799239277769234e-16
2.6320245265960693,0.001352240008699439,0.0011643311129114493,-1.7994354357767343e-16,-1.7994366025646263e-16
2.632319927215576,0.0013522400087016583,0.0011643311129263417,-1.7994441093941143e-16,-1.7991742256388848e-16
2.6326520442962646,0.0013522400087038777,0.001164331112941234,-1.7997411807893752e-16,-1.7991330259563304e-16
2.6387369632720947,0.0013522400087060968,0.0011643311129561264,-1.7990256073555346e-16,-1.799386729264692e-16
2.639023542404175,0.001352240008708316,0.0011643311129710186,-1.7988282825601423e-16,-1.799603569699189e-16
2.6392500400543213,0.0013522400087105351,0.0011643311129859108,-1.7994853090766685e-16,-1.7992804774517884e-16
2.649376153945923,0.0013522400087127543,0.001164331113000803,-1.7993421943899003e-16,-1.7991004998911558e-16
2.652937650680542,0.0013522400087149734,0.0011643311130156951,-1.799062470229399e-16,-1.7993563716038625e-16
2.6533749103546143,0.0013522400087171925,0.0011643311130305873,-1.7991318591684382e-16,-1.7997033162990578e-16
2.6870522499084473,0.0013522400087194117,0.0011643311130454794,-1.7995416875896376e-16,-1.7991286891476405e-16
2.6874613761901855,0.0013522400087216308,0.0011643311130603714,-1.799504824715773e-16,-1.7992262673431641e-16
2.6877217292785645,0.00135224000872385,0.0011643311130752633,-1.7990191021424994e-16,-1.7997987260902365e-16
2.687908411026001,0.0013522400087260691,0.0011643311130901553,-1.7993747204550746e-16,-1.7994452761820062e-16
2.6880931854248047,0.0013522400087282883,0.0011643311131050472,-1.7995200035461877e-16,-1.799326013943033e-16
2.688305139541626,0.0013522400087305074,0.0011643311131199392,-1.7993725520507297e-16,-1.799477802247181e-16
2.688533067703247,0.0013522400087327266,0.001164331113134831,-1.7995980661026068e-16,-1.7993130035169631e-16
2.6887474060058594,0.0013522400087349457,0.0011643311131497227,-1.7990689754424338e-16,-1.7995124967167004e-16
2.6889729499816895,0.0013522400087371649,0.0011643311131646144,-1.7995460243983275e-16,-1.7994105817124867e-16
2.6891584396362305,0.001352240008739384,0.0011643311131795061,-1.7994549514158386e-16,-1.7995190019297352e-16
2.68951416015625,0.0013522400087416031,0.0011643311131943979,-1.798982239268635e-16,-1.7994994862906304e-16
2.689699172973633,0.001352240008743822,0.0011643311132092896,-1.7993313523681752e-16,-1.7993498663908275e-16
2.6899573802948,0.001352240008746041,0.0011643311132241811,-1.7991687220423023e-16,-1.7994452761820062e-16
2.690192699432373,0.00135224000874826,0.0011643311132390726,-1.799641434189506e-16,-1.7989899112695622e-16
2.690433979034424,0.0013522400087504789,0.0011643311132539642,-1.7995200035461874e-16,-1.799306498303928e-16
2.6909985542297363,0.0013522400087526978,0.0011643311132688557,-1.799411583328939e-16,-1.799664285020848e-16
2.6940925121307373,0.0013522400087549167,0.0011643311132837472,-1.7994397725854237e-16,-1.7994864758645604e-16
2.7011003494262695,0.0013522400087571356,0.0011643311132986387,-1.7988846610731112e-16,-1.7995493595905646e-16
2.701495409011841,0.0013522400087593546,0.00116433111331353,-1.7996024029112966e-16,-1.7992761406430983e-16
2.7107903957366943,0.0013522400087615735,0.0011643311133284213,-1.7994766354592883e-16,-1.799291319473513e-16
2.7110812664031982,0.0013522400087637924,0.0011643311133433126,-1.799500487907083e-16,-1.799126520743295e-16
2.7114429473876953,0.0013522400087660114,0.001164331113358204,-1.7995156667374976e-16,-1.7992674670257183e-16
2.7117319107055664,0.0013522400087682303,0.0011643311133730952,-1.7989063451165609e-16,-1.7992739722387534e-16
2.718435525894165,0.0013522400087704492,0.0011643311133879865,-1.7993964044985243e-16,-1.7989161855218332e-16
2.7188515663146973,0.0013522400087726681,0.0011643311134028776,-1.7991296907640928e-16,-1.799447444586351e-16
2.719176769256592,0.001352240008774887,0.0011643311134177687,-1.7991600484249224e-16,-1.7995602016122897e-16
2.7195239067077637,0.001352240008777106,0.0011643311134326598,-1.7992988263030004e-16,-1.7994951494819406e-16
2.72206449508667,0.001352240008779325,0.0011643311134475508,-1.7992164269378915e-16,-1.7994452761820062e-16
2.7231781482696533,0.0013522400087815438,0.001164331113462442,-1.7990689754424335e-16,-1.7993325191560677e-16
2.724378824234009,0.0013522400087837628,0.001164331113477333,-1.7989367027773902e-16,-1.799313003516963e-16
2.7247977256774902,0.0013522400087859815,0.0011643311134922239,-1.799561203228742e-16,-1.799304329899583e-16
2.7396438121795654,0.0013522400087882002,0.0011643311135071147,-1.7993573732203145e-16,-1.7993888976690368e-16
2.7399227619171143,0.001352240008790419,0.0011643311135220056,-1.798860808625316e-16,-1.7996230853382936e-16
2.7425830364227295,0.0013522400087926376,0.0011643311135368965,-1.799448446202803e-16,-1.7994886442689053e-16
2.7447075843811035,0.0013522400087948563,0.0011643311135517873,-1.7998517694109678e-16,-1.7988836594566584e-16
2.746652603149414,0.001352240008797075,0.001164331113566678,-1.7998430957935879e-16,-1.7995471911862196e-16
2.748169422149658,0.0013522400087992938,0.0011643311135815686,-1.799244616194376e-16,-1.7994582866080757e-16
2.76070499420166,0.0013522400088015125,0.0011643311135964593,-1.7990689754424333e-16,-1.7993845608603467e-16
2.760993480682373,0.0013522400088037312,0.00116433111361135,-1.799457119820183e-16,-1.7993173403256527e-16
2.7612147331237793,0.0013522400088059499,0.0011643311136262406,-1.7997064863198547e-16,-1.7989747324391473e-16
2.767590284347534,0.0013522400088081686,0.0011643311136411312,-1.7990364493772587e-16,-1.7992609618126833e-16
2.769284963607788,0.0013522400088103873,0.0011643311136560217,-1.7996804654677152e-16,-1.7990072585043218e-16
2.769914150238037,0.001352240008812606,0.001164331113670912,-1.7992641318334807e-16,-1.7991894044692993e-16
2.7715237140655518,0.0013522400088148247,0.0011643311136858025,-1.799029944164224e-16,-1.7992978246865477e-16
2.771845817565918,0.0013522400088170434,0.001164331113700693,-1.7996219185504011e-16,-1.7990202689303913e-16
2.772789478302002,0.0013522400088192622,0.0011643311137155834,-1.7992077533205116e-16,-1.7991677204258493e-16
2.7739756107330322,0.0013522400088214809,0.0011643311137304738,-1.7992641318334807e-16,-1.799198078086679e-16
2.774939775466919,0.0013522400088236994,0.001164331113745364,-1.799019102142499e-16,-1.7994387709689707e-16
2.7815792560577393,0.001352240008825918,0.0011643311137602543,-1.799450614607148e-16,-1.7992739722387529e-16
2.8117406368255615,0.0013522400088281366,0.0011643311137751445,-1.799086322677193e-16,-1.7992414461735783e-16
2.812028408050537,0.001352240008830355,0.0011643311137900347,-1.799142701190162e-16,-1.7995428543775293e-16
2.822287082672119,0.0013522400088325736,0.001164331113804925,-1.7993096683247248e-16,-1.7991612152128143e-16
2.8275108337402344,0.001352240008834792,0.0011643311138198151,-1.798990912886014e-16,-1.7993780556473115e-16
2.842730760574341,0.0013522400088370105,0.0011643311138347051,-1.7993985729028685e-16,-1.7991438679780547e-16
2.843047618865967,0.001352240008839229,0.0011643311138495951,-1.7991166803380223e-16,-1.7992371093648885e-16
2.843336582183838,0.0013522400088414475,0.0011643311138644851,-1.7994983195027372e-16,-1.7992913194735127e-16
2.845386505126953,0.001352240008843666,0.0011643311138793751,-1.7990993331032627e-16,-1.7996621166165029e-16
2.847438097000122,0.0013522400088458845,0.0011643311138942651,-1.7994159201376283e-16,-1.7993130035169626e-16
2.8480288982391357,0.001352240008848103,0.0011643311139091551,-1.7994961510983923e-16,-1.7991070051041903e-16
2.8613154888153076,0.0013522400088503215,0.001164331113924045,-1.7992576266204455e-16,-1.7995146651210449e-16
2.861581325531006,0.00135224000885254,0.0011643311139389347,-1.799225100555271e-16,-1.7995276755471146e-16
2.867244243621826,0.0013522400088547585,0.0011643311139538245,-1.7992294373639608e-16,-1.799423592138556e-16
2.872999906539917,0.001352240008856977,0.0011643311139687142,-1.798973565651254e-16,-1.7993867292646914e-16
2.87330961227417,0.0013522400088591955,0.001164331113983604,-1.799506993120117e-16,-1.799113510317225e-16
2.873547077178955,0.001352240008861414,0.0011643311139984938,-1.799114511933677e-16,-1.799571043634014e-16
2.873737335205078,0.0013522400088636325,0.0011643311140133834,-1.7994441093941128e-16,-1.799269635430063e-16
2.873971700668335,0.001352240008865851,0.001164331114028273,-1.7992901526856198e-16,-1.799345529582137e-16
2.8741798400878906,0.0013522400088680695,0.0011643311140431625,-1.7993573732203138e-16,-1.7993498663908268e-16
2.874358892440796,0.0013522400088702877,0.001164331114058052,-1.7995069931201167e-16,-1.7990614686129455e-16
2.874711751937866,0.001352240008872506,0.0011643311140729416,-1.799550361207016e-16,-1.7992913194735125e-16
2.874955892562866,0.0013522400088747243,0.001164331114087831,-1.798810935325381e-16,-1.799250119790958e-16
